(Project bars_7)
(Created by Estlcam version 11 build 11.245)
(Machining time about 01:56:02 hours)

(Required tools:)
(1/8")
G21
G90
G94
M03 S10000
G00 X0.0000 Y0.0000 Z0.0000
G00 Z5.0000


(No. 1: Hole 11)
G00 X12.0096 Y12.5237
G00 Z0.5000
G01 Z0.0000 F900 S10000
G01 X29.0234 Z-1.5000
G01 X12.0096 Z-3.0000
G01 X31.8420 F3000
G01 Y13.9547
G01 X12.0096
G01 Y15.3857
G01 X31.8420
G01 Y16.8167
G01 X12.0096
G01 Y18.2477
G01 X31.8420
G01 Y19.6787
G01 X12.0096
G01 Y21.1097
G01 X31.8420
G01 Y22.5407
G01 X12.0096
G01 Y23.9717
G01 X31.8420
G01 Y25.4027
G01 X12.0096
G01 Y26.8337
G01 X31.8420
G01 Y28.2647
G01 X12.0096
G01 Y29.6957
G01 X31.8420
G01 Y31.1267
G01 X12.0096
G01 X11.6916 Y31.0766
G01 Y11.5920
G01 X11.2259 Y11.1262
G01 X11.6916 Y11.5920
G01 X32.1600
G01 X32.6257 Y11.1262
G01 X32.1600 Y11.5920
G01 Y32.0584
G01 X32.6257 Y32.5241
G01 X32.1600 Y32.0584
G01 X11.6916
G01 X11.2259 Y32.5241
G01 X11.6916 Y32.0584
G01 Y31.0766
G01 X12.0096 Y31.1267
G01 X29.0234 Z-4.5000 F900
G01 X12.0096 Z-6.0000
G01 X31.8420 F3000
G01 Y29.6957
G01 X12.0096
G01 Y28.2647
G01 X31.8420
G01 Y26.8337
G01 X12.0096
G01 Y25.4027
G01 X31.8420
G01 Y23.9717
G01 X12.0096
G01 Y22.5407
G01 X31.8420
G01 Y21.1097
G01 X12.0096
G01 Y19.6787
G01 X31.8420
G01 Y18.2477
G01 X12.0096
G01 Y16.8167
G01 X31.8420
G01 Y15.3857
G01 X12.0096
G01 Y13.9547
G01 X31.8420
G01 Y12.5237
G01 X12.0096
G01 X11.6916 Y12.5738
G01 Y11.5920
G01 X11.2259 Y11.1262
G01 X11.6916 Y11.5920
G01 X32.1600
G01 X32.6257 Y11.1262
G01 X32.1600 Y11.5920
G01 Y32.0584
G01 X32.6257 Y32.5241
G01 X32.1600 Y32.0584
G01 X11.6916
G01 X11.2259 Y32.5241
G01 X11.6916 Y32.0584
G01 Y12.5738
G01 X12.0096 Y12.5237
G01 X29.0234 Z-7.5000 F900
G01 X12.0096 Z-9.0000
G01 X31.8420 F3000
G01 Y13.9547
G01 X12.0096
G01 Y15.3857
G01 X31.8420
G01 Y16.8167
G01 X12.0096
G01 Y18.2477
G01 X31.8420
G01 Y19.6787
G01 X12.0096
G01 Y21.1097
G01 X31.8420
G01 Y22.5407
G01 X12.0096
G01 Y23.9717
G01 X31.8420
G01 Y25.4027
G01 X12.0096
G01 Y26.8337
G01 X31.8420
G01 Y28.2647
G01 X12.0096
G01 Y29.6957
G01 X31.8420
G01 Y31.1267
G01 X12.0096
G01 X11.6916 Y31.0766
G01 Y11.5920
G01 X11.2259 Y11.1262
G01 X11.6916 Y11.5920
G01 X32.1600
G01 X32.6257 Y11.1262
G01 X32.1600 Y11.5920
G01 Y32.0584
G01 X32.6257 Y32.5241
G01 X32.1600 Y32.0584
G01 X11.6916
G01 X11.2259 Y32.5241
G01 X11.6916 Y32.0584
G01 Y31.0766
G01 X12.0096 Y31.1267
G01 X29.0234 Z-10.5000 F900
G01 X12.0096 Z-12.0000
G01 X31.8420 F3000
G01 Y29.6957
G01 X12.0096
G01 Y28.2647
G01 X31.8420
G01 Y26.8337
G01 X12.0096
G01 Y25.4027
G01 X31.8420
G01 Y23.9717
G01 X12.0096
G01 Y22.5407
G01 X31.8420
G01 Y21.1097
G01 X12.0096
G01 Y19.6787
G01 X31.8420
G01 Y18.2477
G01 X12.0096
G01 Y16.8167
G01 X31.8420
G01 Y15.3857
G01 X12.0096
G01 Y13.9547
G01 X31.8420
G01 Y12.5237
G01 X12.0096
G01 X11.6916 Y12.5738
G01 Y11.5920
G01 X11.2259 Y11.1262
G01 X11.6916 Y11.5920
G01 X32.1600
G01 X32.6257 Y11.1262
G01 X32.1600 Y11.5920
G01 Y32.0584
G01 X32.6257 Y32.5241
G01 X32.1600 Y32.0584
G01 X11.6916
G01 X11.2259 Y32.5241
G01 X11.6916 Y32.0584
G01 Y12.5738
G01 X12.0096 Y12.5237
G01 X29.0234 Z-13.5000 F900
G01 X12.0096 Z-15.0000
G01 X31.8420 F3000
G01 Y13.9547
G01 X12.0096
G01 Y15.3857
G01 X31.8420
G01 Y16.8167
G01 X12.0096
G01 Y18.2477
G01 X31.8420
G01 Y19.6787
G01 X12.0096
G01 Y21.1097
G01 X31.8420
G01 Y22.5407
G01 X12.0096
G01 Y23.9717
G01 X31.8420
G01 Y25.4027
G01 X12.0096
G01 Y26.8337
G01 X31.8420
G01 Y28.2647
G01 X12.0096
G01 Y29.6957
G01 X31.8420
G01 Y31.1267
G01 X12.0096
G01 X11.6916 Y31.0766
G01 Y11.5920
G01 X11.2259 Y11.1262
G01 X11.6916 Y11.5920
G01 X32.1600
G01 X32.6257 Y11.1262
G01 X32.1600 Y11.5920
G01 Y32.0584
G01 X32.6257 Y32.5241
G01 X32.1600 Y32.0584
G01 X11.6916
G01 X11.2259 Y32.5241
G01 X11.6916 Y32.0584
G01 Y31.0766
G01 X12.0096 Y31.1267
G00 Z5.0000


(No. 2: Hole 21)
G00 X13.9061 Y31.2247 Z5.0000
G00 Z0.5000
G01 X14.7011 F900
G03 X13.5086 Y31.9132 Z0.2083 I-0.7950 J0.0000
G03 Y30.5362 Z-0.0833 I0.3975 J-0.6885
G03 X14.7011 Y31.2247 Z-0.3750 I0.3975 J0.6885
G03 X13.5086 Y31.9132 Z-0.6667 I-0.7950 J0.0000
G03 Y30.5362 Z-0.9583 I0.3975 J-0.6885
G03 X14.7011 Y31.2247 Z-1.2500 I0.3975 J0.6885
G03 X13.5086 Y31.9132 Z-1.5417 I-0.7950 J0.0000
G03 Y30.5362 Z-1.8333 I0.3975 J-0.6885
G03 X14.7011 Y31.2247 Z-2.1250 I0.3975 J0.6885
G03 X13.5086 Y31.9132 Z-2.4167 I-0.7950 J0.0000
G03 Y30.5362 Z-2.7083 I0.3975 J-0.6885
G03 X14.7011 Y31.2247 Z-3.0000 I0.3975 J0.6885
G03 X13.5086 Y31.9132 I-0.7950 J0.0000
G03 Y30.5362 I0.3975 J-0.6885
G03 X14.7011 Y31.2247 I0.3975 J0.6885
G01 X13.9061 F3000
G01 Y13.9061
G01 X16.1098
G01 Y325.9786
G01 X13.9061
G01 Y31.2247
G01 X12.4465 Y31.2777
G01 Y12.4465
G01 X17.5694
G01 Y327.4382
G01 X12.4465
G01 Y31.2777
G01 X11.6896 Y31.2914
G01 Y11.6896
G01 X18.3084
G01 Y328.2088
G01 X11.6896
G01 Y31.2914
G00 Z5.0000
G00 X13.9061 Y31.4237
G00 Z-2.5000
G01 X14.7011 F900
G03 X13.5086 Y32.1122 Z-2.7917 I-0.7950 J0.0000
G03 Y30.7352 Z-3.0833 I0.3975 J-0.6885
G03 X14.7011 Y31.4237 Z-3.3750 I0.3975 J0.6885
G03 X13.5086 Y32.1122 Z-3.6667 I-0.7950 J0.0000
G03 Y30.7352 Z-3.9583 I0.3975 J-0.6885
G03 X14.7011 Y31.4237 Z-4.2500 I0.3975 J0.6885
G03 X13.5086 Y32.1122 Z-4.5417 I-0.7950 J0.0000
G03 Y30.7352 Z-4.8333 I0.3975 J-0.6885
G03 X14.7011 Y31.4237 Z-5.1250 I0.3975 J0.6885
G03 X13.5086 Y32.1122 Z-5.4167 I-0.7950 J0.0000
G03 Y30.7352 Z-5.7083 I0.3975 J-0.6885
G03 X14.7011 Y31.4237 Z-6.0000 I0.3975 J0.6885
G03 X13.5086 Y32.1122 I-0.7950 J0.0000
G03 Y30.7352 I0.3975 J-0.6885
G03 X14.7011 Y31.4237 I0.3975 J0.6885
G01 X13.9061 F3000
G01 Y13.9061
G01 X16.1098
G01 Y325.9786
G01 X13.9061
G01 Y31.4237
G01 X12.4465 Y31.4762
G01 Y12.4465
G01 X17.5694
G01 Y327.4382
G01 X12.4465
G01 Y31.4762
G01 X11.6896 Y31.4897
G01 Y11.6896
G01 X18.3084
G01 Y328.2088
G01 X11.6896
G01 Y31.4897
G00 Z5.0000
G00 X13.9061 Y31.6205
G00 Z-5.5000
G01 X14.7011 F900
G03 X13.5086 Y32.3090 Z-5.7917 I-0.7950 J0.0000
G03 Y30.9320 Z-6.0833 I0.3975 J-0.6885
G03 X14.7011 Y31.6205 Z-6.3750 I0.3975 J0.6885
G03 X13.5086 Y32.3090 Z-6.6667 I-0.7950 J0.0000
G03 Y30.9320 Z-6.9583 I0.3975 J-0.6885
G03 X14.7011 Y31.6205 Z-7.2500 I0.3975 J0.6885
G03 X13.5086 Y32.3090 Z-7.5417 I-0.7950 J0.0000
G03 Y30.9320 Z-7.8333 I0.3975 J-0.6885
G03 X14.7011 Y31.6205 Z-8.1250 I0.3975 J0.6885
G03 X13.5086 Y32.3090 Z-8.4167 I-0.7950 J0.0000
G03 Y30.9320 Z-8.7083 I0.3975 J-0.6885
G03 X14.7011 Y31.6205 Z-9.0000 I0.3975 J0.6885
G03 X13.5086 Y32.3090 I-0.7950 J0.0000
G03 Y30.9320 I0.3975 J-0.6885
G03 X14.7011 Y31.6205 I0.3975 J0.6885
G01 X13.9061 F3000
G01 Y13.9061
G01 X16.1098
G01 Y325.9786
G01 X13.9061
G01 Y31.6205
G01 X12.4465 Y31.6723
G01 Y12.4465
G01 X17.5694
G01 Y327.4382
G01 X12.4465
G01 Y31.6723
G01 X11.6896 Y31.6857
G01 Y11.6896
G01 X18.3084
G01 Y328.2088
G01 X11.6896
G01 Y31.6857
G00 Z5.0000
G00 X13.9061 Y31.8149
G00 Z-8.5000
G01 X14.7011 F900
G03 X13.5086 Y32.5034 Z-8.7500 I-0.7950 J0.0000
G03 Y31.1264 Z-9.0000 I0.3975 J-0.6885
G03 X14.7011 Y31.8149 Z-9.2500 I0.3975 J0.6885
G03 X13.5086 Y32.5034 Z-9.5000 I-0.7950 J0.0000
G03 Y31.1264 Z-9.7500 I0.3975 J-0.6885
G03 X14.7011 Y31.8149 Z-10.0000 I0.3975 J0.6885
G03 X13.5086 Y32.5034 I-0.7950 J0.0000
G03 Y31.1264 I0.3975 J-0.6885
G03 X14.7011 Y31.8149 I0.3975 J0.6885
G01 X13.9061 F3000
G01 Y13.9061
G01 X16.1098
G01 Y325.9786
G01 X13.9061
G01 Y31.8149
G01 X12.4465 Y31.8663
G01 Y12.4465
G01 X17.5694
G01 Y327.4382
G01 X12.4465
G01 Y31.8663
G01 X11.6896 Y31.8795
G01 Y11.6896
G01 X18.3084
G01 Y328.2088
G01 X11.6896
G01 Y31.8795
G00 Z5.0000


(No. 3: Hole 23)
G00 X40.7201 Y46.2273 Z5.0000
G00 Z0.5000
G01 X41.5151 F900
G03 X40.3226 Y46.9158 Z0.2083 I-0.7950 J0.0000
G03 Y45.5388 Z-0.0833 I0.3975 J-0.6885
G03 X41.5151 Y46.2273 Z-0.3750 I0.3975 J0.6885
G03 X40.3226 Y46.9158 Z-0.6667 I-0.7950 J0.0000
G03 Y45.5388 Z-0.9583 I0.3975 J-0.6885
G03 X41.5151 Y46.2273 Z-1.2500 I0.3975 J0.6885
G03 X40.3226 Y46.9158 Z-1.5417 I-0.7950 J0.0000
G03 Y45.5388 Z-1.8333 I0.3975 J-0.6885
G03 X41.5151 Y46.2273 Z-2.1250 I0.3975 J0.6885
G03 X40.3226 Y46.9158 Z-2.4167 I-0.7950 J0.0000
G03 Y45.5388 Z-2.7083 I0.3975 J-0.6885
G03 X41.5151 Y46.2273 Z-3.0000 I0.3975 J0.6885
G03 X40.3226 Y46.9158 I-0.7950 J0.0000
G03 Y45.5388 I0.3975 J-0.6885
G03 X41.5151 Y46.2273 I0.3975 J0.6885
G01 X40.7201 F3000
G01 Y13.9061
G01 X42.9239
G01 Y325.9786
G01 X40.7201
G01 Y46.2273
G01 X39.2605 Y46.2550
G01 Y12.4465
G01 X44.3835
G01 Y327.4382
G01 X39.2605
G01 Y46.2550
G01 X38.5037 Y46.2623
G01 Y11.6896
G01 X45.1225
G01 Y328.2088
G01 X38.5037
G01 Y46.2623
G00 Z5.0000
G00 X40.7201 Y46.3293
G00 Z-2.5000
G01 X41.5151 F900
G03 X40.3226 Y47.0178 Z-2.7917 I-0.7950 J0.0000
G03 Y45.6408 Z-3.0833 I0.3975 J-0.6885
G03 X41.5151 Y46.3293 Z-3.3750 I0.3975 J0.6885
G03 X40.3226 Y47.0178 Z-3.6667 I-0.7950 J0.0000
G03 Y45.6408 Z-3.9583 I0.3975 J-0.6885
G03 X41.5151 Y46.3293 Z-4.2500 I0.3975 J0.6885
G03 X40.3226 Y47.0178 Z-4.5417 I-0.7950 J0.0000
G03 Y45.6408 Z-4.8333 I0.3975 J-0.6885
G03 X41.5151 Y46.3293 Z-5.1250 I0.3975 J0.6885
G03 X40.3226 Y47.0178 Z-5.4167 I-0.7950 J0.0000
G03 Y45.6408 Z-5.7083 I0.3975 J-0.6885
G03 X41.5151 Y46.3293 Z-6.0000 I0.3975 J0.6885
G03 X40.3226 Y47.0178 I-0.7950 J0.0000
G03 Y45.6408 I0.3975 J-0.6885
G03 X41.5151 Y46.3293 I0.3975 J0.6885
G01 X40.7201 F3000
G01 Y13.9061
G01 X42.9239
G01 Y325.9786
G01 X40.7201
G01 Y46.3293
G01 X39.2605 Y46.3570
G01 Y12.4465
G01 X44.3835
G01 Y327.4382
G01 X39.2605
G01 Y46.3570
G01 X38.5037 Y46.3642
G01 Y11.6896
G01 X45.1225
G01 Y328.2088
G01 X38.5037
G01 Y46.3642
G00 Z5.0000
G00 X40.7201 Y46.4310
G00 Z-5.5000
G01 X41.5151 F900
G03 X40.3226 Y47.1195 Z-5.7917 I-0.7950 J0.0000
G03 Y45.7425 Z-6.0833 I0.3975 J-0.6885
G03 X41.5151 Y46.4310 Z-6.3750 I0.3975 J0.6885
G03 X40.3226 Y47.1195 Z-6.6667 I-0.7950 J0.0000
G03 Y45.7425 Z-6.9583 I0.3975 J-0.6885
G03 X41.5151 Y46.4310 Z-7.2500 I0.3975 J0.6885
G03 X40.3226 Y47.1195 Z-7.5417 I-0.7950 J0.0000
G03 Y45.7425 Z-7.8333 I0.3975 J-0.6885
G03 X41.5151 Y46.4310 Z-8.1250 I0.3975 J0.6885
G03 X40.3226 Y47.1195 Z-8.4167 I-0.7950 J0.0000
G03 Y45.7425 Z-8.7083 I0.3975 J-0.6885
G03 X41.5151 Y46.4310 Z-9.0000 I0.3975 J0.6885
G03 X40.3226 Y47.1195 I-0.7950 J0.0000
G03 Y45.7425 I0.3975 J-0.6885
G03 X41.5151 Y46.4310 I0.3975 J0.6885
G01 X40.7201 F3000
G01 Y13.9061
G01 X42.9239
G01 Y325.9786
G01 X40.7201
G01 Y46.4310
G01 X39.2605 Y46.4585
G01 Y12.4465
G01 X44.3835
G01 Y327.4382
G01 X39.2605
G01 Y46.4585
G01 X38.5037 Y46.4658
G01 Y11.6896
G01 X45.1225
G01 Y328.2088
G01 X38.5037
G01 Y46.4658
G00 Z5.0000
G00 X40.7201 Y46.5323
G00 Z-8.5000
G01 X41.5151 F900
G03 X40.3226 Y47.2208 Z-8.7500 I-0.7950 J0.0000
G03 Y45.8438 Z-9.0000 I0.3975 J-0.6885
G03 X41.5151 Y46.5323 Z-9.2500 I0.3975 J0.6885
G03 X40.3226 Y47.2208 Z-9.5000 I-0.7950 J0.0000
G03 Y45.8438 Z-9.7500 I0.3975 J-0.6885
G03 X41.5151 Y46.5323 Z-10.0000 I0.3975 J0.6885
G03 X40.3226 Y47.2208 I-0.7950 J0.0000
G03 Y45.8438 I0.3975 J-0.6885
G03 X41.5151 Y46.5323 I0.3975 J0.6885
G01 X40.7201 F3000
G01 Y13.9061
G01 X42.9239
G01 Y325.9786
G01 X40.7201
G01 Y46.5323
G01 X39.2605 Y46.5598
G01 Y12.4465
G01 X44.3835
G01 Y327.4382
G01 X39.2605
G01 Y46.5598
G01 X38.5037 Y46.5670
G01 Y11.6896
G01 X45.1225
G01 Y328.2088
G01 X38.5037
G01 Y46.5670
G00 Z5.0000


(No. 4: Hole 12)
G00 X38.8236 Y31.1267 Z5.0000
G00 Z0.5000
G01 Z0.0000 F900
G01 X55.8375 Z-1.5000
G01 X38.8236 Z-3.0000
G01 X58.6561 F3000
G01 Y29.6957
G01 X38.8236
G01 Y28.2647
G01 X58.6561
G01 Y26.8337
G01 X38.8236
G01 Y25.4027
G01 X58.6561
G01 Y23.9717
G01 X38.8236
G01 Y22.5407
G01 X58.6561
G01 Y21.1097
G01 X38.8236
G01 Y19.6787
G01 X58.6561
G01 Y18.2477
G01 X38.8236
G01 Y16.8167
G01 X58.6561
G01 Y15.3857
G01 X38.8236
G01 Y13.9547
G01 X58.6561
G01 Y12.5237
G01 X38.8236
G01 X38.5056 Y12.5738
G01 Y11.5920
G01 X38.0399 Y11.1262
G01 X38.5056 Y11.5920
G01 X58.9741
G01 X59.4398 Y11.1262
G01 X58.9741 Y11.5920
G01 Y32.0584
G01 X59.4398 Y32.5241
G01 X58.9741 Y32.0584
G01 X38.5056
G01 X38.0399 Y32.5241
G01 X38.5056 Y32.0584
G01 Y12.5738
G01 X38.8236 Y12.5237
G01 X55.8375 Z-4.5000 F900
G01 X38.8236 Z-6.0000
G01 X58.6561 F3000
G01 Y13.9547
G01 X38.8236
G01 Y15.3857
G01 X58.6561
G01 Y16.8167
G01 X38.8236
G01 Y18.2477
G01 X58.6561
G01 Y19.6787
G01 X38.8236
G01 Y21.1097
G01 X58.6561
G01 Y22.5407
G01 X38.8236
G01 Y23.9717
G01 X58.6561
G01 Y25.4027
G01 X38.8236
G01 Y26.8337
G01 X58.6561
G01 Y28.2647
G01 X38.8236
G01 Y29.6957
G01 X58.6561
G01 Y31.1267
G01 X38.8236
G01 X38.5056 Y31.0766
G01 Y11.5920
G01 X38.0399 Y11.1262
G01 X38.5056 Y11.5920
G01 X58.9741
G01 X59.4398 Y11.1262
G01 X58.9741 Y11.5920
G01 Y32.0584
G01 X59.4398 Y32.5241
G01 X58.9741 Y32.0584
G01 X38.5056
G01 X38.0399 Y32.5241
G01 X38.5056 Y32.0584
G01 Y31.0766
G01 X38.8236 Y31.1267
G01 X55.8375 Z-7.5000 F900
G01 X38.8236 Z-9.0000
G01 X58.6561 F3000
G01 Y29.6957
G01 X38.8236
G01 Y28.2647
G01 X58.6561
G01 Y26.8337
G01 X38.8236
G01 Y25.4027
G01 X58.6561
G01 Y23.9717
G01 X38.8236
G01 Y22.5407
G01 X58.6561
G01 Y21.1097
G01 X38.8236
G01 Y19.6787
G01 X58.6561
G01 Y18.2477
G01 X38.8236
G01 Y16.8167
G01 X58.6561
G01 Y15.3857
G01 X38.8236
G01 Y13.9547
G01 X58.6561
G01 Y12.5237
G01 X38.8236
G01 X38.5056 Y12.5738
G01 Y11.5920
G01 X38.0399 Y11.1262
G01 X38.5056 Y11.5920
G01 X58.9741
G01 X59.4398 Y11.1262
G01 X58.9741 Y11.5920
G01 Y32.0584
G01 X59.4398 Y32.5241
G01 X58.9741 Y32.0584
G01 X38.5056
G01 X38.0399 Y32.5241
G01 X38.5056 Y32.0584
G01 Y12.5738
G01 X38.8236 Y12.5237
G01 X55.8375 Z-10.5000 F900
G01 X38.8236 Z-12.0000
G01 X58.6561 F3000
G01 Y13.9547
G01 X38.8236
G01 Y15.3857
G01 X58.6561
G01 Y16.8167
G01 X38.8236
G01 Y18.2477
G01 X58.6561
G01 Y19.6787
G01 X38.8236
G01 Y21.1097
G01 X58.6561
G01 Y22.5407
G01 X38.8236
G01 Y23.9717
G01 X58.6561
G01 Y25.4027
G01 X38.8236
G01 Y26.8337
G01 X58.6561
G01 Y28.2647
G01 X38.8236
G01 Y29.6957
G01 X58.6561
G01 Y31.1267
G01 X38.8236
G01 X38.5056 Y31.0766
G01 Y11.5920
G01 X38.0399 Y11.1262
G01 X38.5056 Y11.5920
G01 X58.9741
G01 X59.4398 Y11.1262
G01 X58.9741 Y11.5920
G01 Y32.0584
G01 X59.4398 Y32.5241
G01 X58.9741 Y32.0584
G01 X38.5056
G01 X38.0399 Y32.5241
G01 X38.5056 Y32.0584
G01 Y31.0766
G01 X38.8236 Y31.1267
G01 X55.8375 Z-13.5000 F900
G01 X38.8236 Z-15.0000
G01 X58.6561 F3000
G01 Y29.6957
G01 X38.8236
G01 Y28.2647
G01 X58.6561
G01 Y26.8337
G01 X38.8236
G01 Y25.4027
G01 X58.6561
G01 Y23.9717
G01 X38.8236
G01 Y22.5407
G01 X58.6561
G01 Y21.1097
G01 X38.8236
G01 Y19.6787
G01 X58.6561
G01 Y18.2477
G01 X38.8236
G01 Y16.8167
G01 X58.6561
G01 Y15.3857
G01 X38.8236
G01 Y13.9547
G01 X58.6561
G01 Y12.5237
G01 X38.8236
G01 X38.5056 Y12.5738
G01 Y11.5920
G01 X38.0399 Y11.1262
G01 X38.5056 Y11.5920
G01 X58.9741
G01 X59.4398 Y11.1262
G01 X58.9741 Y11.5920
G01 Y32.0584
G01 X59.4398 Y32.5241
G01 X58.9741 Y32.0584
G01 X38.5056
G01 X38.0399 Y32.5241
G01 X38.5056 Y32.0584
G01 Y12.5738
G01 X38.8236 Y12.5237
G00 Z5.0000


(No. 5: Hole 25)
G00 X68.5955 Y13.9061 Z5.0000
G00 Z0.5000
G01 X69.3905 F900
G03 X68.1980 Y14.5946 Z0.2083 I-0.7950 J0.0000
G03 Y13.2176 Z-0.0833 I0.3975 J-0.6885
G03 X69.3905 Y13.9061 Z-0.3750 I0.3975 J0.6885
G03 X68.1980 Y14.5946 Z-0.6667 I-0.7950 J0.0000
G03 Y13.2176 Z-0.9583 I0.3975 J-0.6885
G03 X69.3905 Y13.9061 Z-1.2500 I0.3975 J0.6885
G03 X68.1980 Y14.5946 Z-1.5417 I-0.7950 J0.0000
G03 Y13.2176 Z-1.8333 I0.3975 J-0.6885
G03 X69.3905 Y13.9061 Z-2.1250 I0.3975 J0.6885
G03 X68.1980 Y14.5946 Z-2.4167 I-0.7950 J0.0000
G03 Y13.2176 Z-2.7083 I0.3975 J-0.6885
G03 X69.3905 Y13.9061 Z-3.0000 I0.3975 J0.6885
G03 X68.1980 Y14.5946 I-0.7950 J0.0000
G03 Y13.2176 I0.3975 J-0.6885
G03 X69.3905 Y13.9061 I0.3975 J0.6885
G01 X68.5955 F3000
G01 X69.7380
G01 Y325.9786
G01 X67.5342
G01 Y13.9061
G01 X68.5955
G01 X68.6054 Y12.4465
G01 X71.1976
G01 Y327.4382
G01 X66.0746
G01 Y12.4465
G01 X68.6054
G01 X68.6065 Y11.6896
G01 X71.9366
G01 Y328.2088
G01 X65.3178
G01 Y11.6896
G01 X68.6065
G00 Z5.0000
G00 X68.6302 Y13.9061
G00 Z-2.5000
G01 X69.4252 F900
G03 X68.2327 Y14.5946 Z-2.7917 I-0.7950 J0.0000
G03 Y13.2176 Z-3.0833 I0.3975 J-0.6885
G03 X69.4252 Y13.9061 Z-3.3750 I0.3975 J0.6885
G03 X68.2327 Y14.5946 Z-3.6667 I-0.7950 J0.0000
G03 Y13.2176 Z-3.9583 I0.3975 J-0.6885
G03 X69.4252 Y13.9061 Z-4.2500 I0.3975 J0.6885
G03 X68.2327 Y14.5946 Z-4.5417 I-0.7950 J0.0000
G03 Y13.2176 Z-4.8333 I0.3975 J-0.6885
G03 X69.4252 Y13.9061 Z-5.1250 I0.3975 J0.6885
G03 X68.2327 Y14.5946 Z-5.4167 I-0.7950 J0.0000
G03 Y13.2176 Z-5.7083 I0.3975 J-0.6885
G03 X69.4252 Y13.9061 Z-6.0000 I0.3975 J0.6885
G03 X68.2327 Y14.5946 I-0.7950 J0.0000
G03 Y13.2176 I0.3975 J-0.6885
G03 X69.4252 Y13.9061 I0.3975 J0.6885
G01 X68.6302 F3000
G01 X69.7380
G01 Y325.9786
G01 X67.5342
G01 Y13.9061
G01 X68.6302
G01 X68.6317 Y12.4465
G01 X71.1976
G01 Y327.4382
G01 X66.0746
G01 Y12.4465
G01 X68.6317
G01 X68.6314 Y11.6896
G01 X71.9366
G01 Y328.2088
G01 X65.3178
G01 Y11.6896
G01 X68.6314
G00 Z5.0000
G00 X68.6352 Y13.9061
G00 Z-5.5000
G01 X69.4302 F900
G03 X68.2377 Y14.5946 Z-5.7917 I-0.7950 J0.0000
G03 Y13.2176 Z-6.0833 I0.3975 J-0.6885
G03 X69.4302 Y13.9061 Z-6.3750 I0.3975 J0.6885
G03 X68.2377 Y14.5946 Z-6.6667 I-0.7950 J0.0000
G03 Y13.2176 Z-6.9583 I0.3975 J-0.6885
G03 X69.4302 Y13.9061 Z-7.2500 I0.3975 J0.6885
G03 X68.2377 Y14.5946 Z-7.5417 I-0.7950 J0.0000
G03 Y13.2176 Z-7.8333 I0.3975 J-0.6885
G03 X69.4302 Y13.9061 Z-8.1250 I0.3975 J0.6885
G03 X68.2377 Y14.5946 Z-8.4167 I-0.7950 J0.0000
G03 Y13.2176 Z-8.7083 I0.3975 J-0.6885
G03 X69.4302 Y13.9061 Z-9.0000 I0.3975 J0.6885
G03 X68.2377 Y14.5946 I-0.7950 J0.0000
G03 Y13.2176 I0.3975 J-0.6885
G03 X69.4302 Y13.9061 I0.3975 J0.6885
G01 X68.6352 F3000
G01 X69.7380
G01 Y325.9786
G01 X67.5342
G01 Y13.9061
G01 X68.6352
G01 X68.6354 Y12.4465
G01 X71.1976
G01 Y327.4382
G01 X66.0746
G01 Y12.4465
G01 X68.6354
G01 X68.6350 Y11.6896
G01 X71.9366
G01 Y328.2088
G01 X65.3178
G01 Y11.6896
G01 X68.6350
G00 Z5.0000
G00 X68.6359 Y13.9061
G00 Z-8.5000
G01 X69.4309 F900
G03 X68.2384 Y14.5946 Z-8.7500 I-0.7950 J0.0000
G03 Y13.2176 Z-9.0000 I0.3975 J-0.6885
G03 X69.4309 Y13.9061 Z-9.2500 I0.3975 J0.6885
G03 X68.2384 Y14.5946 Z-9.5000 I-0.7950 J0.0000
G03 Y13.2176 Z-9.7500 I0.3975 J-0.6885
G03 X69.4309 Y13.9061 Z-10.0000 I0.3975 J0.6885
G03 X68.2384 Y14.5946 I-0.7950 J0.0000
G03 Y13.2176 I0.3975 J-0.6885
G03 X69.4309 Y13.9061 I0.3975 J0.6885
G01 X68.6359 F3000
G01 X69.7380
G01 Y325.9786
G01 X67.5342
G01 Y13.9061
G01 X68.6359
G01 Y12.4465
G01 X71.1976
G01 Y327.4382
G01 X66.0746
G01 Y12.4465
G01 X68.6359
G01 X68.6355 Y11.6896
G01 X71.9366
G01 Y328.2088
G01 X65.3178
G01 Y11.6896
G01 X68.6355
G00 Z5.0000


(No. 6: Hole 13)
G00 X65.6377 Y12.5237 Z5.0000
G00 Z0.5000
G01 Z0.0000 F900
G01 X82.6516 Z-1.5000
G01 X65.6377 Z-3.0000
G01 X85.4702 F3000
G01 Y13.9547
G01 X65.6377
G01 Y15.3857
G01 X85.4702
G01 Y16.8167
G01 X65.6377
G01 Y18.2477
G01 X85.4702
G01 Y19.6787
G01 X65.6377
G01 Y21.1097
G01 X85.4702
G01 Y22.5407
G01 X65.6377
G01 Y23.9717
G01 X85.4702
G01 Y25.4027
G01 X65.6377
G01 Y26.8337
G01 X85.4702
G01 Y28.2647
G01 X65.6377
G01 Y29.6957
G01 X85.4702
G01 Y31.1267
G01 X65.6377
G01 X65.3197 Y31.0766
G01 Y11.5920
G01 X64.8540 Y11.1262
G01 X65.3197 Y11.5920
G01 X85.7882
G01 X86.2539 Y11.1262
G01 X85.7882 Y11.5920
G01 Y32.0584
G01 X86.2539 Y32.5241
G01 X85.7882 Y32.0584
G01 X65.3197
G01 X64.8540 Y32.5241
G01 X65.3197 Y32.0584
G01 Y31.0766
G01 X65.6377 Y31.1267
G01 X82.6516 Z-4.5000 F900
G01 X65.6377 Z-6.0000
G01 X85.4702 F3000
G01 Y29.6957
G01 X65.6377
G01 Y28.2647
G01 X85.4702
G01 Y26.8337
G01 X65.6377
G01 Y25.4027
G01 X85.4702
G01 Y23.9717
G01 X65.6377
G01 Y22.5407
G01 X85.4702
G01 Y21.1097
G01 X65.6377
G01 Y19.6787
G01 X85.4702
G01 Y18.2477
G01 X65.6377
G01 Y16.8167
G01 X85.4702
G01 Y15.3857
G01 X65.6377
G01 Y13.9547
G01 X85.4702
G01 Y12.5237
G01 X65.6377
G01 X65.3197 Y12.5738
G01 Y11.5920
G01 X64.8540 Y11.1262
G01 X65.3197 Y11.5920
G01 X85.7882
G01 X86.2539 Y11.1262
G01 X85.7882 Y11.5920
G01 Y32.0584
G01 X86.2539 Y32.5241
G01 X85.7882 Y32.0584
G01 X65.3197
G01 X64.8540 Y32.5241
G01 X65.3197 Y32.0584
G01 Y12.5738
G01 X65.6377 Y12.5237
G01 X82.6516 Z-7.5000 F900
G01 X65.6377 Z-9.0000
G01 X85.4702 F3000
G01 Y13.9547
G01 X65.6377
G01 Y15.3857
G01 X85.4702
G01 Y16.8167
G01 X65.6377
G01 Y18.2477
G01 X85.4702
G01 Y19.6787
G01 X65.6377
G01 Y21.1097
G01 X85.4702
G01 Y22.5407
G01 X65.6377
G01 Y23.9717
G01 X85.4702
G01 Y25.4027
G01 X65.6377
G01 Y26.8337
G01 X85.4702
G01 Y28.2647
G01 X65.6377
G01 Y29.6957
G01 X85.4702
G01 Y31.1267
G01 X65.6377
G01 X65.3197 Y31.0766
G01 Y11.5920
G01 X64.8540 Y11.1262
G01 X65.3197 Y11.5920
G01 X85.7882
G01 X86.2539 Y11.1262
G01 X85.7882 Y11.5920
G01 Y32.0584
G01 X86.2539 Y32.5241
G01 X85.7882 Y32.0584
G01 X65.3197
G01 X64.8540 Y32.5241
G01 X65.3197 Y32.0584
G01 Y31.0766
G01 X65.6377 Y31.1267
G01 X82.6516 Z-10.5000 F900
G01 X65.6377 Z-12.0000
G01 X85.4702 F3000
G01 Y29.6957
G01 X65.6377
G01 Y28.2647
G01 X85.4702
G01 Y26.8337
G01 X65.6377
G01 Y25.4027
G01 X85.4702
G01 Y23.9717
G01 X65.6377
G01 Y22.5407
G01 X85.4702
G01 Y21.1097
G01 X65.6377
G01 Y19.6787
G01 X85.4702
G01 Y18.2477
G01 X65.6377
G01 Y16.8167
G01 X85.4702
G01 Y15.3857
G01 X65.6377
G01 Y13.9547
G01 X85.4702
G01 Y12.5237
G01 X65.6377
G01 X65.3197 Y12.5738
G01 Y11.5920
G01 X64.8540 Y11.1262
G01 X65.3197 Y11.5920
G01 X85.7882
G01 X86.2539 Y11.1262
G01 X85.7882 Y11.5920
G01 Y32.0584
G01 X86.2539 Y32.5241
G01 X85.7882 Y32.0584
G01 X65.3197
G01 X64.8540 Y32.5241
G01 X65.3197 Y32.0584
G01 Y12.5738
G01 X65.6377 Y12.5237
G01 X82.6516 Z-13.5000 F900
G01 X65.6377 Z-15.0000
G01 X85.4702 F3000
G01 Y13.9547
G01 X65.6377
G01 Y15.3857
G01 X85.4702
G01 Y16.8167
G01 X65.6377
G01 Y18.2477
G01 X85.4702
G01 Y19.6787
G01 X65.6377
G01 Y21.1097
G01 X85.4702
G01 Y22.5407
G01 X65.6377
G01 Y23.9717
G01 X85.4702
G01 Y25.4027
G01 X65.6377
G01 Y26.8337
G01 X85.4702
G01 Y28.2647
G01 X65.6377
G01 Y29.6957
G01 X85.4702
G01 Y31.1267
G01 X65.6377
G01 X65.3197 Y31.0766
G01 Y11.5920
G01 X64.8540 Y11.1262
G01 X65.3197 Y11.5920
G01 X85.7882
G01 X86.2539 Y11.1262
G01 X85.7882 Y11.5920
G01 Y32.0584
G01 X86.2539 Y32.5241
G01 X85.7882 Y32.0584
G01 X65.3197
G01 X64.8540 Y32.5241
G01 X65.3197 Y32.0584
G01 Y31.0766
G01 X65.6377 Y31.1267
G00 Z5.0000


(No. 7: Hole 27)
G00 X94.3483 Y45.5927 Z5.0000
G00 Z0.5000
G01 X95.1433 F900
G03 X93.9508 Y46.2812 Z0.2083 I-0.7950 J0.0000
G03 Y44.9042 Z-0.0833 I0.3975 J-0.6885
G03 X95.1433 Y45.5927 Z-0.3750 I0.3975 J0.6885
G03 X93.9508 Y46.2812 Z-0.6667 I-0.7950 J0.0000
G03 Y44.9042 Z-0.9583 I0.3975 J-0.6885
G03 X95.1433 Y45.5927 Z-1.2500 I0.3975 J0.6885
G03 X93.9508 Y46.2812 Z-1.5417 I-0.7950 J0.0000
G03 Y44.9042 Z-1.8333 I0.3975 J-0.6885
G03 X95.1433 Y45.5927 Z-2.1250 I0.3975 J0.6885
G03 X93.9508 Y46.2812 Z-2.4167 I-0.7950 J0.0000
G03 Y44.9042 Z-2.7083 I0.3975 J-0.6885
G03 X95.1433 Y45.5927 Z-3.0000 I0.3975 J0.6885
G03 X93.9508 Y46.2812 I-0.7950 J0.0000
G03 Y44.9042 I0.3975 J-0.6885
G03 X95.1433 Y45.5927 I0.3975 J0.6885
G01 X94.3483 F3000
G01 Y13.9061
G01 X96.5520
G01 Y325.9786
G01 X94.3483
G01 Y45.5927
G01 X92.8887 Y45.6211
G01 Y12.4465
G01 X98.0117
G01 Y327.4382
G01 X92.8887
G01 Y45.6211
G01 X92.1318 Y45.6285
G01 Y11.6896
G01 X98.7507
G01 Y328.2088
G01 X92.1318
G01 Y45.6285
G00 Z5.0000
G00 X94.3483 Y45.6970
G00 Z-2.5000
G01 X95.1433 F900
G03 X93.9508 Y46.3855 Z-2.7917 I-0.7950 J0.0000
G03 Y45.0086 Z-3.0833 I0.3975 J-0.6885
G03 X95.1433 Y45.6970 Z-3.3750 I0.3975 J0.6885
G03 X93.9508 Y46.3855 Z-3.6667 I-0.7950 J0.0000
G03 Y45.0086 Z-3.9583 I0.3975 J-0.6885
G03 X95.1433 Y45.6970 Z-4.2500 I0.3975 J0.6885
G03 X93.9508 Y46.3855 Z-4.5417 I-0.7950 J0.0000
G03 Y45.0086 Z-4.8333 I0.3975 J-0.6885
G03 X95.1433 Y45.6970 Z-5.1250 I0.3975 J0.6885
G03 X93.9508 Y46.3855 Z-5.4167 I-0.7950 J0.0000
G03 Y45.0086 Z-5.7083 I0.3975 J-0.6885
G03 X95.1433 Y45.6970 Z-6.0000 I0.3975 J0.6885
G03 X93.9508 Y46.3855 I-0.7950 J0.0000
G03 Y45.0086 I0.3975 J-0.6885
G03 X95.1433 Y45.6970 I0.3975 J0.6885
G01 X94.3483 F3000
G01 Y13.9061
G01 X96.5520
G01 Y325.9786
G01 X94.3483
G01 Y45.6970
G01 X92.8887 Y45.7253
G01 Y12.4465
G01 X98.0117
G01 Y327.4382
G01 X92.8887
G01 Y45.7253
G01 X92.1318 Y45.7327
G01 Y11.6896
G01 X98.7507
G01 Y328.2088
G01 X92.1318
G01 Y45.7327
G00 Z5.0000
G00 X94.3483 Y45.8010
G00 Z-5.5000
G01 X95.1433 F900
G03 X93.9508 Y46.4895 Z-5.7917 I-0.7950 J0.0000
G03 Y45.1125 Z-6.0833 I0.3975 J-0.6885
G03 X95.1433 Y45.8010 Z-6.3750 I0.3975 J0.6885
G03 X93.9508 Y46.4895 Z-6.6667 I-0.7950 J0.0000
G03 Y45.1125 Z-6.9583 I0.3975 J-0.6885
G03 X95.1433 Y45.8010 Z-7.2500 I0.3975 J0.6885
G03 X93.9508 Y46.4895 Z-7.5417 I-0.7950 J0.0000
G03 Y45.1125 Z-7.8333 I0.3975 J-0.6885
G03 X95.1433 Y45.8010 Z-8.1250 I0.3975 J0.6885
G03 X93.9508 Y46.4895 Z-8.4167 I-0.7950 J0.0000
G03 Y45.1125 Z-8.7083 I0.3975 J-0.6885
G03 X95.1433 Y45.8010 Z-9.0000 I0.3975 J0.6885
G03 X93.9508 Y46.4895 I-0.7950 J0.0000
G03 Y45.1125 I0.3975 J-0.6885
G03 X95.1433 Y45.8010 I0.3975 J0.6885
G01 X94.3483 F3000
G01 Y13.9061
G01 X96.5520
G01 Y325.9786
G01 X94.3483
G01 Y45.8010
G01 X92.8887 Y45.8291
G01 Y12.4465
G01 X98.0117
G01 Y327.4382
G01 X92.8887
G01 Y45.8291
G01 X92.1318 Y45.8365
G01 Y11.6896
G01 X98.7507
G01 Y328.2088
G01 X92.1318
G01 Y45.8365
G00 Z5.0000
G00 X94.3483 Y45.9046
G00 Z-8.5000
G01 X95.1433 F900
G03 X93.9508 Y46.5931 Z-8.7500 I-0.7950 J0.0000
G03 Y45.2161 Z-9.0000 I0.3975 J-0.6885
G03 X95.1433 Y45.9046 Z-9.2500 I0.3975 J0.6885
G03 X93.9508 Y46.5931 Z-9.5000 I-0.7950 J0.0000
G03 Y45.2161 Z-9.7500 I0.3975 J-0.6885
G03 X95.1433 Y45.9046 Z-10.0000 I0.3975 J0.6885
G03 X93.9508 Y46.5931 I-0.7950 J0.0000
G03 Y45.2161 I0.3975 J-0.6885
G03 X95.1433 Y45.9046 I0.3975 J0.6885
G01 X94.3483 F3000
G01 Y13.9061
G01 X96.5520
G01 Y325.9786
G01 X94.3483
G01 Y45.9046
G01 X92.8887 Y45.9326
G01 Y12.4465
G01 X98.0117
G01 Y327.4382
G01 X92.8887
G01 Y45.9326
G01 X92.1318 Y45.9400
G01 Y11.6896
G01 X98.7507
G01 Y328.2088
G01 X92.1318
G01 Y45.9400
G00 Z5.0000


(No. 8: Hole 14)
G00 X92.4518 Y31.1267 Z5.0000
G00 Z0.5000
G01 Z0.0000 F900
G01 X109.4656 Z-1.5000
G01 X92.4518 Z-3.0000
G01 X112.2842 F3000
G01 Y29.6957
G01 X92.4518
G01 Y28.2647
G01 X112.2842
G01 Y26.8337
G01 X92.4518
G01 Y25.4027
G01 X112.2842
G01 Y23.9717
G01 X92.4518
G01 Y22.5407
G01 X112.2842
G01 Y21.1097
G01 X92.4518
G01 Y19.6787
G01 X112.2842
G01 Y18.2477
G01 X92.4518
G01 Y16.8167
G01 X112.2842
G01 Y15.3857
G01 X92.4518
G01 Y13.9547
G01 X112.2842
G01 Y12.5237
G01 X92.4518
G01 X92.1338 Y12.5738
G01 Y11.5920
G01 X91.6681 Y11.1262
G01 X92.1338 Y11.5920
G01 X112.6022
G01 X113.0679 Y11.1262
G01 X112.6022 Y11.5920
G01 Y32.0584
G01 X113.0679 Y32.5241
G01 X112.6022 Y32.0584
G01 X92.1338
G01 X91.6681 Y32.5241
G01 X92.1338 Y32.0584
G01 Y12.5738
G01 X92.4518 Y12.5237
G01 X109.4656 Z-4.5000 F900
G01 X92.4518 Z-6.0000
G01 X112.2842 F3000
G01 Y13.9547
G01 X92.4518
G01 Y15.3857
G01 X112.2842
G01 Y16.8167
G01 X92.4518
G01 Y18.2477
G01 X112.2842
G01 Y19.6787
G01 X92.4518
G01 Y21.1097
G01 X112.2842
G01 Y22.5407
G01 X92.4518
G01 Y23.9717
G01 X112.2842
G01 Y25.4027
G01 X92.4518
G01 Y26.8337
G01 X112.2842
G01 Y28.2647
G01 X92.4518
G01 Y29.6957
G01 X112.2842
G01 Y31.1267
G01 X92.4518
G01 X92.1338 Y31.0766
G01 Y11.5920
G01 X91.6681 Y11.1262
G01 X92.1338 Y11.5920
G01 X112.6022
G01 X113.0679 Y11.1262
G01 X112.6022 Y11.5920
G01 Y32.0584
G01 X113.0679 Y32.5241
G01 X112.6022 Y32.0584
G01 X92.1338
G01 X91.6681 Y32.5241
G01 X92.1338 Y32.0584
G01 Y31.0766
G01 X92.4518 Y31.1267
G01 X109.4656 Z-7.5000 F900
G01 X92.4518 Z-9.0000
G01 X112.2842 F3000
G01 Y29.6957
G01 X92.4518
G01 Y28.2647
G01 X112.2842
G01 Y26.8337
G01 X92.4518
G01 Y25.4027
G01 X112.2842
G01 Y23.9717
G01 X92.4518
G01 Y22.5407
G01 X112.2842
G01 Y21.1097
G01 X92.4518
G01 Y19.6787
G01 X112.2842
G01 Y18.2477
G01 X92.4518
G01 Y16.8167
G01 X112.2842
G01 Y15.3857
G01 X92.4518
G01 Y13.9547
G01 X112.2842
G01 Y12.5237
G01 X92.4518
G01 X92.1338 Y12.5738
G01 Y11.5920
G01 X91.6681 Y11.1262
G01 X92.1338 Y11.5920
G01 X112.6022
G01 X113.0679 Y11.1262
G01 X112.6022 Y11.5920
G01 Y32.0584
G01 X113.0679 Y32.5241
G01 X112.6022 Y32.0584
G01 X92.1338
G01 X91.6681 Y32.5241
G01 X92.1338 Y32.0584
G01 Y12.5738
G01 X92.4518 Y12.5237
G01 X109.4656 Z-10.5000 F900
G01 X92.4518 Z-12.0000
G01 X112.2842 F3000
G01 Y13.9547
G01 X92.4518
G01 Y15.3857
G01 X112.2842
G01 Y16.8167
G01 X92.4518
G01 Y18.2477
G01 X112.2842
G01 Y19.6787
G01 X92.4518
G01 Y21.1097
G01 X112.2842
G01 Y22.5407
G01 X92.4518
G01 Y23.9717
G01 X112.2842
G01 Y25.4027
G01 X92.4518
G01 Y26.8337
G01 X112.2842
G01 Y28.2647
G01 X92.4518
G01 Y29.6957
G01 X112.2842
G01 Y31.1267
G01 X92.4518
G01 X92.1338 Y31.0766
G01 Y11.5920
G01 X91.6681 Y11.1262
G01 X92.1338 Y11.5920
G01 X112.6022
G01 X113.0679 Y11.1262
G01 X112.6022 Y11.5920
G01 Y32.0584
G01 X113.0679 Y32.5241
G01 X112.6022 Y32.0584
G01 X92.1338
G01 X91.6681 Y32.5241
G01 X92.1338 Y32.0584
G01 Y31.0766
G01 X92.4518 Y31.1267
G01 X109.4656 Z-13.5000 F900
G01 X92.4518 Z-15.0000
G01 X112.2842 F3000
G01 Y29.6957
G01 X92.4518
G01 Y28.2647
G01 X112.2842
G01 Y26.8337
G01 X92.4518
G01 Y25.4027
G01 X112.2842
G01 Y23.9717
G01 X92.4518
G01 Y22.5407
G01 X112.2842
G01 Y21.1097
G01 X92.4518
G01 Y19.6787
G01 X112.2842
G01 Y18.2477
G01 X92.4518
G01 Y16.8167
G01 X112.2842
G01 Y15.3857
G01 X92.4518
G01 Y13.9547
G01 X112.2842
G01 Y12.5237
G01 X92.4518
G01 X92.1338 Y12.5738
G01 Y11.5920
G01 X91.6681 Y11.1262
G01 X92.1338 Y11.5920
G01 X112.6022
G01 X113.0679 Y11.1262
G01 X112.6022 Y11.5920
G01 Y32.0584
G01 X113.0679 Y32.5241
G01 X112.6022 Y32.0584
G01 X92.1338
G01 X91.6681 Y32.5241
G01 X92.1338 Y32.0584
G01 Y12.5738
G01 X92.4518 Y12.5237
G00 Z5.0000


(No. 9: Hole 29)
G00 X122.2236 Y13.9061 Z5.0000
G00 Z0.5000
G01 X123.0186 F900
G03 X121.8261 Y14.5946 Z0.2083 I-0.7950 J0.0000
G03 Y13.2176 Z-0.0833 I0.3975 J-0.6885
G03 X123.0186 Y13.9061 Z-0.3750 I0.3975 J0.6885
G03 X121.8261 Y14.5946 Z-0.6667 I-0.7950 J0.0000
G03 Y13.2176 Z-0.9583 I0.3975 J-0.6885
G03 X123.0186 Y13.9061 Z-1.2500 I0.3975 J0.6885
G03 X121.8261 Y14.5946 Z-1.5417 I-0.7950 J0.0000
G03 Y13.2176 Z-1.8333 I0.3975 J-0.6885
G03 X123.0186 Y13.9061 Z-2.1250 I0.3975 J0.6885
G03 X121.8261 Y14.5946 Z-2.4167 I-0.7950 J0.0000
G03 Y13.2176 Z-2.7083 I0.3975 J-0.6885
G03 X123.0186 Y13.9061 Z-3.0000 I0.3975 J0.6885
G03 X121.8261 Y14.5946 I-0.7950 J0.0000
G03 Y13.2176 I0.3975 J-0.6885
G03 X123.0186 Y13.9061 I0.3975 J0.6885
G01 X122.2236 F3000
G01 X123.3661
G01 Y325.9786
G01 X121.1624
G01 Y13.9061
G01 X122.2236
G01 X122.2336 Y12.4465
G01 X124.8257
G01 Y327.4382
G01 X119.7028
G01 Y12.4465
G01 X122.2336
G01 X122.2347 Y11.6896
G01 X125.5647
G01 Y328.2088
G01 X118.9459
G01 Y11.6896
G01 X122.2347
G00 Z5.0000
G00 X122.2584 Y13.9061
G00 Z-2.5000
G01 X123.0534 F900
G03 X121.8609 Y14.5946 Z-2.7917 I-0.7950 J0.0000
G03 Y13.2176 Z-3.0833 I0.3975 J-0.6885
G03 X123.0534 Y13.9061 Z-3.3750 I0.3975 J0.6885
G03 X121.8609 Y14.5946 Z-3.6667 I-0.7950 J0.0000
G03 Y13.2176 Z-3.9583 I0.3975 J-0.6885
G03 X123.0534 Y13.9061 Z-4.2500 I0.3975 J0.6885
G03 X121.8609 Y14.5946 Z-4.5417 I-0.7950 J0.0000
G03 Y13.2176 Z-4.8333 I0.3975 J-0.6885
G03 X123.0534 Y13.9061 Z-5.1250 I0.3975 J0.6885
G03 X121.8609 Y14.5946 Z-5.4167 I-0.7950 J0.0000
G03 Y13.2176 Z-5.7083 I0.3975 J-0.6885
G03 X123.0534 Y13.9061 Z-6.0000 I0.3975 J0.6885
G03 X121.8609 Y14.5946 I-0.7950 J0.0000
G03 Y13.2176 I0.3975 J-0.6885
G03 X123.0534 Y13.9061 I0.3975 J0.6885
G01 X122.2584 F3000
G01 X123.3661
G01 Y325.9786
G01 X121.1624
G01 Y13.9061
G01 X122.2584
G01 X122.2598 Y12.4465
G01 X124.8257
G01 Y327.4382
G01 X119.7028
G01 Y12.4465
G01 X122.2598
G01 X122.2596 Y11.6896
G01 X125.5647
G01 Y328.2088
G01 X118.9459
G01 Y11.6896
G01 X122.2596
G00 Z5.0000
G00 X122.2633 Y13.9061
G00 Z-5.5000
G01 X123.0583 F900
G03 X121.8658 Y14.5946 Z-5.7917 I-0.7950 J0.0000
G03 Y13.2176 Z-6.0833 I0.3975 J-0.6885
G03 X123.0583 Y13.9061 Z-6.3750 I0.3975 J0.6885
G03 X121.8658 Y14.5946 Z-6.6667 I-0.7950 J0.0000
G03 Y13.2176 Z-6.9583 I0.3975 J-0.6885
G03 X123.0583 Y13.9061 Z-7.2500 I0.3975 J0.6885
G03 X121.8658 Y14.5946 Z-7.5417 I-0.7950 J0.0000
G03 Y13.2176 Z-7.8333 I0.3975 J-0.6885
G03 X123.0583 Y13.9061 Z-8.1250 I0.3975 J0.6885
G03 X121.8658 Y14.5946 Z-8.4167 I-0.7950 J0.0000
G03 Y13.2176 Z-8.7083 I0.3975 J-0.6885
G03 X123.0583 Y13.9061 Z-9.0000 I0.3975 J0.6885
G03 X121.8658 Y14.5946 I-0.7950 J0.0000
G03 Y13.2176 I0.3975 J-0.6885
G03 X123.0583 Y13.9061 I0.3975 J0.6885
G01 X122.2633 F3000
G01 X123.3661
G01 Y325.9786
G01 X121.1624
G01 Y13.9061
G01 X122.2633
G01 X122.2636 Y12.4465
G01 X124.8257
G01 Y327.4382
G01 X119.7028
G01 Y12.4465
G01 X122.2636
G01 X122.2631 Y11.6896
G01 X125.5647
G01 Y328.2088
G01 X118.9459
G01 Y11.6896
G01 X122.2631
G00 Z5.0000
G00 X122.2640 Y13.9061
G00 Z-8.5000
G01 X123.0590 F900
G03 X121.8665 Y14.5946 Z-8.7500 I-0.7950 J0.0000
G03 Y13.2176 Z-9.0000 I0.3975 J-0.6885
G03 X123.0590 Y13.9061 Z-9.2500 I0.3975 J0.6885
G03 X121.8665 Y14.5946 Z-9.5000 I-0.7950 J0.0000
G03 Y13.2176 Z-9.7500 I0.3975 J-0.6885
G03 X123.0590 Y13.9061 Z-10.0000 I0.3975 J0.6885
G03 X121.8665 Y14.5946 I-0.7950 J0.0000
G03 Y13.2176 I0.3975 J-0.6885
G03 X123.0590 Y13.9061 I0.3975 J0.6885
G01 X122.2640 F3000
G01 X123.3661
G01 Y325.9786
G01 X121.1624
G01 Y13.9061
G01 X122.2640
G01 X122.2641 Y12.4465
G01 X124.8257
G01 Y327.4382
G01 X119.7028
G01 Y12.4465
G01 X122.2641
G01 X122.2636 Y11.6896
G01 X125.5647
G01 Y328.2088
G01 X118.9459
G01 Y11.6896
G01 X122.2636
G00 Z5.0000


(No. 10: Hole 15)
G00 X119.2659 Y12.5237 Z5.0000
G00 Z0.5000
G01 Z0.0000 F900
G01 X136.2797 Z-1.5000
G01 X119.2659 Z-3.0000
G01 X139.0983 F3000
G01 Y13.9547
G01 X119.2659
G01 Y15.3857
G01 X139.0983
G01 Y16.8167
G01 X119.2659
G01 Y18.2477
G01 X139.0983
G01 Y19.6787
G01 X119.2659
G01 Y21.1097
G01 X139.0983
G01 Y22.5407
G01 X119.2659
G01 Y23.9717
G01 X139.0983
G01 Y25.4027
G01 X119.2659
G01 Y26.8337
G01 X139.0983
G01 Y28.2647
G01 X119.2659
G01 Y29.6957
G01 X139.0983
G01 Y31.1267
G01 X119.2659
G01 X118.9479 Y31.0766
G01 Y11.5920
G01 X118.4822 Y11.1262
G01 X118.9479 Y11.5920
G01 X139.4163
G01 X139.8820 Y11.1262
G01 X139.4163 Y11.5920
G01 Y32.0584
G01 X139.8820 Y32.5241
G01 X139.4163 Y32.0584
G01 X118.9479
G01 X118.4822 Y32.5241
G01 X118.9479 Y32.0584
G01 Y31.0766
G01 X119.2659 Y31.1267
G01 X136.2797 Z-4.5000 F900
G01 X119.2659 Z-6.0000
G01 X139.0983 F3000
G01 Y29.6957
G01 X119.2659
G01 Y28.2647
G01 X139.0983
G01 Y26.8337
G01 X119.2659
G01 Y25.4027
G01 X139.0983
G01 Y23.9717
G01 X119.2659
G01 Y22.5407
G01 X139.0983
G01 Y21.1097
G01 X119.2659
G01 Y19.6787
G01 X139.0983
G01 Y18.2477
G01 X119.2659
G01 Y16.8167
G01 X139.0983
G01 Y15.3857
G01 X119.2659
G01 Y13.9547
G01 X139.0983
G01 Y12.5237
G01 X119.2659
G01 X118.9479 Y12.5738
G01 Y11.5920
G01 X118.4822 Y11.1262
G01 X118.9479 Y11.5920
G01 X139.4163
G01 X139.8820 Y11.1262
G01 X139.4163 Y11.5920
G01 Y32.0584
G01 X139.8820 Y32.5241
G01 X139.4163 Y32.0584
G01 X118.9479
G01 X118.4822 Y32.5241
G01 X118.9479 Y32.0584
G01 Y12.5738
G01 X119.2659 Y12.5237
G01 X136.2797 Z-7.5000 F900
G01 X119.2659 Z-9.0000
G01 X139.0983 F3000
G01 Y13.9547
G01 X119.2659
G01 Y15.3857
G01 X139.0983
G01 Y16.8167
G01 X119.2659
G01 Y18.2477
G01 X139.0983
G01 Y19.6787
G01 X119.2659
G01 Y21.1097
G01 X139.0983
G01 Y22.5407
G01 X119.2659
G01 Y23.9717
G01 X139.0983
G01 Y25.4027
G01 X119.2659
G01 Y26.8337
G01 X139.0983
G01 Y28.2647
G01 X119.2659
G01 Y29.6957
G01 X139.0983
G01 Y31.1267
G01 X119.2659
G01 X118.9479 Y31.0766
G01 Y11.5920
G01 X118.4822 Y11.1262
G01 X118.9479 Y11.5920
G01 X139.4163
G01 X139.8820 Y11.1262
G01 X139.4163 Y11.5920
G01 Y32.0584
G01 X139.8820 Y32.5241
G01 X139.4163 Y32.0584
G01 X118.9479
G01 X118.4822 Y32.5241
G01 X118.9479 Y32.0584
G01 Y31.0766
G01 X119.2659 Y31.1267
G01 X136.2797 Z-10.5000 F900
G01 X119.2659 Z-12.0000
G01 X139.0983 F3000
G01 Y29.6957
G01 X119.2659
G01 Y28.2647
G01 X139.0983
G01 Y26.8337
G01 X119.2659
G01 Y25.4027
G01 X139.0983
G01 Y23.9717
G01 X119.2659
G01 Y22.5407
G01 X139.0983
G01 Y21.1097
G01 X119.2659
G01 Y19.6787
G01 X139.0983
G01 Y18.2477
G01 X119.2659
G01 Y16.8167
G01 X139.0983
G01 Y15.3857
G01 X119.2659
G01 Y13.9547
G01 X139.0983
G01 Y12.5237
G01 X119.2659
G01 X118.9479 Y12.5738
G01 Y11.5920
G01 X118.4822 Y11.1262
G01 X118.9479 Y11.5920
G01 X139.4163
G01 X139.8820 Y11.1262
G01 X139.4163 Y11.5920
G01 Y32.0584
G01 X139.8820 Y32.5241
G01 X139.4163 Y32.0584
G01 X118.9479
G01 X118.4822 Y32.5241
G01 X118.9479 Y32.0584
G01 Y12.5738
G01 X119.2659 Y12.5237
G01 X136.2797 Z-13.5000 F900
G01 X119.2659 Z-15.0000
G01 X139.0983 F3000
G01 Y13.9547
G01 X119.2659
G01 Y15.3857
G01 X139.0983
G01 Y16.8167
G01 X119.2659
G01 Y18.2477
G01 X139.0983
G01 Y19.6787
G01 X119.2659
G01 Y21.1097
G01 X139.0983
G01 Y22.5407
G01 X119.2659
G01 Y23.9717
G01 X139.0983
G01 Y25.4027
G01 X119.2659
G01 Y26.8337
G01 X139.0983
G01 Y28.2647
G01 X119.2659
G01 Y29.6957
G01 X139.0983
G01 Y31.1267
G01 X119.2659
G01 X118.9479 Y31.0766
G01 Y11.5920
G01 X118.4822 Y11.1262
G01 X118.9479 Y11.5920
G01 X139.4163
G01 X139.8820 Y11.1262
G01 X139.4163 Y11.5920
G01 Y32.0584
G01 X139.8820 Y32.5241
G01 X139.4163 Y32.0584
G01 X118.9479
G01 X118.4822 Y32.5241
G01 X118.9479 Y32.0584
G01 Y31.0766
G01 X119.2659 Y31.1267
G00 Z5.0000


(No. 11: Hole 31)
G00 X147.9764 Y45.5927 Z5.0000
G00 Z0.5000
G01 X148.7714 F900
G03 X147.5789 Y46.2812 Z0.2083 I-0.7950 J0.0000
G03 Y44.9042 Z-0.0833 I0.3975 J-0.6885
G03 X148.7714 Y45.5927 Z-0.3750 I0.3975 J0.6885
G03 X147.5789 Y46.2812 Z-0.6667 I-0.7950 J0.0000
G03 Y44.9042 Z-0.9583 I0.3975 J-0.6885
G03 X148.7714 Y45.5927 Z-1.2500 I0.3975 J0.6885
G03 X147.5789 Y46.2812 Z-1.5417 I-0.7950 J0.0000
G03 Y44.9042 Z-1.8333 I0.3975 J-0.6885
G03 X148.7714 Y45.5927 Z-2.1250 I0.3975 J0.6885
G03 X147.5789 Y46.2812 Z-2.4167 I-0.7950 J0.0000
G03 Y44.9042 Z-2.7083 I0.3975 J-0.6885
G03 X148.7714 Y45.5927 Z-3.0000 I0.3975 J0.6885
G03 X147.5789 Y46.2812 I-0.7950 J0.0000
G03 Y44.9042 I0.3975 J-0.6885
G03 X148.7714 Y45.5927 I0.3975 J0.6885
G01 X147.9764 F3000
G01 Y13.9061
G01 X150.1802
G01 Y325.9786
G01 X147.9764
G01 Y45.5927
G01 X146.5168 Y45.6210
G01 Y12.4465
G01 X151.6398
G01 Y327.4382
G01 X146.5168
G01 Y45.6210
G01 X145.7600 Y45.6285
G01 Y11.6896
G01 X152.3788
G01 Y328.2088
G01 X145.7600
G01 Y45.6285
G00 Z5.0000
G00 X147.9764 Y45.6970
G00 Z-2.5000
G01 X148.7714 F900
G03 X147.5789 Y46.3855 Z-2.7917 I-0.7950 J0.0000
G03 Y45.0086 Z-3.0833 I0.3975 J-0.6885
G03 X148.7714 Y45.6970 Z-3.3750 I0.3975 J0.6885
G03 X147.5789 Y46.3855 Z-3.6667 I-0.7950 J0.0000
G03 Y45.0086 Z-3.9583 I0.3975 J-0.6885
G03 X148.7714 Y45.6970 Z-4.2500 I0.3975 J0.6885
G03 X147.5789 Y46.3855 Z-4.5417 I-0.7950 J0.0000
G03 Y45.0086 Z-4.8333 I0.3975 J-0.6885
G03 X148.7714 Y45.6970 Z-5.1250 I0.3975 J0.6885
G03 X147.5789 Y46.3855 Z-5.4167 I-0.7950 J0.0000
G03 Y45.0086 Z-5.7083 I0.3975 J-0.6885
G03 X148.7714 Y45.6970 Z-6.0000 I0.3975 J0.6885
G03 X147.5789 Y46.3855 I-0.7950 J0.0000
G03 Y45.0086 I0.3975 J-0.6885
G03 X148.7714 Y45.6970 I0.3975 J0.6885
G01 X147.9764 F3000
G01 Y13.9061
G01 X150.1802
G01 Y325.9786
G01 X147.9764
G01 Y45.6970
G01 X146.5168 Y45.7253
G01 Y12.4465
G01 X151.6398
G01 Y327.4382
G01 X146.5168
G01 Y45.7253
G01 X145.7600 Y45.7327
G01 Y11.6896
G01 X152.3788
G01 Y328.2088
G01 X145.7600
G01 Y45.7327
G00 Z5.0000
G00 X147.9764 Y45.8010
G00 Z-5.5000
G01 X148.7714 F900
G03 X147.5789 Y46.4895 Z-5.7917 I-0.7950 J0.0000
G03 Y45.1125 Z-6.0833 I0.3975 J-0.6885
G03 X148.7714 Y45.8010 Z-6.3750 I0.3975 J0.6885
G03 X147.5789 Y46.4895 Z-6.6667 I-0.7950 J0.0000
G03 Y45.1125 Z-6.9583 I0.3975 J-0.6885
G03 X148.7714 Y45.8010 Z-7.2500 I0.3975 J0.6885
G03 X147.5789 Y46.4895 Z-7.5417 I-0.7950 J0.0000
G03 Y45.1125 Z-7.8333 I0.3975 J-0.6885
G03 X148.7714 Y45.8010 Z-8.1250 I0.3975 J0.6885
G03 X147.5789 Y46.4895 Z-8.4167 I-0.7950 J0.0000
G03 Y45.1125 Z-8.7083 I0.3975 J-0.6885
G03 X148.7714 Y45.8010 Z-9.0000 I0.3975 J0.6885
G03 X147.5789 Y46.4895 I-0.7950 J0.0000
G03 Y45.1125 I0.3975 J-0.6885
G03 X148.7714 Y45.8010 I0.3975 J0.6885
G01 X147.9764 F3000
G01 Y13.9061
G01 X150.1802
G01 Y325.9786
G01 X147.9764
G01 Y45.8010
G01 X146.5168 Y45.8291
G01 Y12.4465
G01 X151.6398
G01 Y327.4382
G01 X146.5168
G01 Y45.8291
G01 X145.7600 Y45.8365
G01 Y11.6896
G01 X152.3788
G01 Y328.2088
G01 X145.7600
G01 Y45.8365
G00 Z5.0000
G00 X147.9764 Y45.9046
G00 Z-8.5000
G01 X148.7714 F900
G03 X147.5789 Y46.5931 Z-8.7500 I-0.7950 J0.0000
G03 Y45.2161 Z-9.0000 I0.3975 J-0.6885
G03 X148.7714 Y45.9046 Z-9.2500 I0.3975 J0.6885
G03 X147.5789 Y46.5931 Z-9.5000 I-0.7950 J0.0000
G03 Y45.2161 Z-9.7500 I0.3975 J-0.6885
G03 X148.7714 Y45.9046 Z-10.0000 I0.3975 J0.6885
G03 X147.5789 Y46.5931 I-0.7950 J0.0000
G03 Y45.2161 I0.3975 J-0.6885
G03 X148.7714 Y45.9046 I0.3975 J0.6885
G01 X147.9764 F3000
G01 Y13.9061
G01 X150.1802
G01 Y325.9786
G01 X147.9764
G01 Y45.9046
G01 X146.5168 Y45.9326
G01 Y12.4465
G01 X151.6398
G01 Y327.4382
G01 X146.5168
G01 Y45.9326
G01 X145.7600 Y45.9399
G01 Y11.6896
G01 X152.3788
G01 Y328.2088
G01 X145.7600
G01 Y45.9399
G00 Z5.0000


(No. 12: Hole 16)
G00 X146.0799 Y31.1267 Z5.0000
G00 Z0.5000
G01 Z0.0000 F900
G01 X163.0938 Z-1.5000
G01 X146.0799 Z-3.0000
G01 X165.9124 F3000
G01 Y29.6957
G01 X146.0799
G01 Y28.2647
G01 X165.9124
G01 Y26.8337
G01 X146.0799
G01 Y25.4027
G01 X165.9124
G01 Y23.9717
G01 X146.0799
G01 Y22.5407
G01 X165.9124
G01 Y21.1097
G01 X146.0799
G01 Y19.6787
G01 X165.9124
G01 Y18.2477
G01 X146.0799
G01 Y16.8167
G01 X165.9124
G01 Y15.3857
G01 X146.0799
G01 Y13.9547
G01 X165.9124
G01 Y12.5237
G01 X146.0799
G01 X145.7619 Y12.5738
G01 Y11.5920
G01 X145.2962 Y11.1262
G01 X145.7619 Y11.5920
G01 X166.2304
G01 X166.6961 Y11.1262
G01 X166.2304 Y11.5920
G01 Y32.0584
G01 X166.6961 Y32.5241
G01 X166.2304 Y32.0584
G01 X145.7619
G01 X145.2962 Y32.5241
G01 X145.7619 Y32.0584
G01 Y12.5738
G01 X146.0799 Y12.5237
G01 X163.0938 Z-4.5000 F900
G01 X146.0799 Z-6.0000
G01 X165.9124 F3000
G01 Y13.9547
G01 X146.0799
G01 Y15.3857
G01 X165.9124
G01 Y16.8167
G01 X146.0799
G01 Y18.2477
G01 X165.9124
G01 Y19.6787
G01 X146.0799
G01 Y21.1097
G01 X165.9124
G01 Y22.5407
G01 X146.0799
G01 Y23.9717
G01 X165.9124
G01 Y25.4027
G01 X146.0799
G01 Y26.8337
G01 X165.9124
G01 Y28.2647
G01 X146.0799
G01 Y29.6957
G01 X165.9124
G01 Y31.1267
G01 X146.0799
G01 X145.7619 Y31.0766
G01 Y11.5920
G01 X145.2962 Y11.1262
G01 X145.7619 Y11.5920
G01 X166.2304
G01 X166.6961 Y11.1262
G01 X166.2304 Y11.5920
G01 Y32.0584
G01 X166.6961 Y32.5241
G01 X166.2304 Y32.0584
G01 X145.7619
G01 X145.2962 Y32.5241
G01 X145.7619 Y32.0584
G01 Y31.0766
G01 X146.0799 Y31.1267
G01 X163.0938 Z-7.5000 F900
G01 X146.0799 Z-9.0000
G01 X165.9124 F3000
G01 Y29.6957
G01 X146.0799
G01 Y28.2647
G01 X165.9124
G01 Y26.8337
G01 X146.0799
G01 Y25.4027
G01 X165.9124
G01 Y23.9717
G01 X146.0799
G01 Y22.5407
G01 X165.9124
G01 Y21.1097
G01 X146.0799
G01 Y19.6787
G01 X165.9124
G01 Y18.2477
G01 X146.0799
G01 Y16.8167
G01 X165.9124
G01 Y15.3857
G01 X146.0799
G01 Y13.9547
G01 X165.9124
G01 Y12.5237
G01 X146.0799
G01 X145.7619 Y12.5738
G01 Y11.5920
G01 X145.2962 Y11.1262
G01 X145.7619 Y11.5920
G01 X166.2304
G01 X166.6961 Y11.1262
G01 X166.2304 Y11.5920
G01 Y32.0584
G01 X166.6961 Y32.5241
G01 X166.2304 Y32.0584
G01 X145.7619
G01 X145.2962 Y32.5241
G01 X145.7619 Y32.0584
G01 Y12.5738
G01 X146.0799 Y12.5237
G01 X163.0938 Z-10.5000 F900
G01 X146.0799 Z-12.0000
G01 X165.9124 F3000
G01 Y13.9547
G01 X146.0799
G01 Y15.3857
G01 X165.9124
G01 Y16.8167
G01 X146.0799
G01 Y18.2477
G01 X165.9124
G01 Y19.6787
G01 X146.0799
G01 Y21.1097
G01 X165.9124
G01 Y22.5407
G01 X146.0799
G01 Y23.9717
G01 X165.9124
G01 Y25.4027
G01 X146.0799
G01 Y26.8337
G01 X165.9124
G01 Y28.2647
G01 X146.0799
G01 Y29.6957
G01 X165.9124
G01 Y31.1267
G01 X146.0799
G01 X145.7619 Y31.0766
G01 Y11.5920
G01 X145.2962 Y11.1262
G01 X145.7619 Y11.5920
G01 X166.2304
G01 X166.6961 Y11.1262
G01 X166.2304 Y11.5920
G01 Y32.0584
G01 X166.6961 Y32.5241
G01 X166.2304 Y32.0584
G01 X145.7619
G01 X145.2962 Y32.5241
G01 X145.7619 Y32.0584
G01 Y31.0766
G01 X146.0799 Y31.1267
G01 X163.0938 Z-13.5000 F900
G01 X146.0799 Z-15.0000
G01 X165.9124 F3000
G01 Y29.6957
G01 X146.0799
G01 Y28.2647
G01 X165.9124
G01 Y26.8337
G01 X146.0799
G01 Y25.4027
G01 X165.9124
G01 Y23.9717
G01 X146.0799
G01 Y22.5407
G01 X165.9124
G01 Y21.1097
G01 X146.0799
G01 Y19.6787
G01 X165.9124
G01 Y18.2477
G01 X146.0799
G01 Y16.8167
G01 X165.9124
G01 Y15.3857
G01 X146.0799
G01 Y13.9547
G01 X165.9124
G01 Y12.5237
G01 X146.0799
G01 X145.7619 Y12.5738
G01 Y11.5920
G01 X145.2962 Y11.1262
G01 X145.7619 Y11.5920
G01 X166.2304
G01 X166.6961 Y11.1262
G01 X166.2304 Y11.5920
G01 Y32.0584
G01 X166.6961 Y32.5241
G01 X166.2304 Y32.0584
G01 X145.7619
G01 X145.2962 Y32.5241
G01 X145.7619 Y32.0584
G01 Y12.5738
G01 X146.0799 Y12.5237
G00 Z5.0000


(No. 13: Hole 33)
G00 X175.8518 Y13.9061 Z5.0000
G00 Z0.5000
G01 X176.6468 F900
G03 X175.4543 Y14.5946 Z0.2083 I-0.7950 J0.0000
G03 Y13.2176 Z-0.0833 I0.3975 J-0.6885
G03 X176.6468 Y13.9061 Z-0.3750 I0.3975 J0.6885
G03 X175.4543 Y14.5946 Z-0.6667 I-0.7950 J0.0000
G03 Y13.2176 Z-0.9583 I0.3975 J-0.6885
G03 X176.6468 Y13.9061 Z-1.2500 I0.3975 J0.6885
G03 X175.4543 Y14.5946 Z-1.5417 I-0.7950 J0.0000
G03 Y13.2176 Z-1.8333 I0.3975 J-0.6885
G03 X176.6468 Y13.9061 Z-2.1250 I0.3975 J0.6885
G03 X175.4543 Y14.5946 Z-2.4167 I-0.7950 J0.0000
G03 Y13.2176 Z-2.7083 I0.3975 J-0.6885
G03 X176.6468 Y13.9061 Z-3.0000 I0.3975 J0.6885
G03 X175.4543 Y14.5946 I-0.7950 J0.0000
G03 Y13.2176 I0.3975 J-0.6885
G03 X176.6468 Y13.9061 I0.3975 J0.6885
G01 X175.8518 F3000
G01 X176.9943
G01 Y325.9786
G01 X174.7905
G01 Y13.9061
G01 X175.8518
G01 X175.8617 Y12.4465
G01 X178.4539
G01 Y327.4382
G01 X173.3309
G01 Y12.4465
G01 X175.8617
G01 X175.8628 Y11.6896
G01 X179.1929
G01 Y328.2088
G01 X172.5741
G01 Y11.6896
G01 X175.8628
G00 Z5.0000
G00 X175.8865 Y13.9061
G00 Z-2.5000
G01 X176.6815 F900
G03 X175.4890 Y14.5946 Z-2.7917 I-0.7950 J0.0000
G03 Y13.2176 Z-3.0833 I0.3975 J-0.6885
G03 X176.6815 Y13.9061 Z-3.3750 I0.3975 J0.6885
G03 X175.4890 Y14.5946 Z-3.6667 I-0.7950 J0.0000
G03 Y13.2176 Z-3.9583 I0.3975 J-0.6885
G03 X176.6815 Y13.9061 Z-4.2500 I0.3975 J0.6885
G03 X175.4890 Y14.5946 Z-4.5417 I-0.7950 J0.0000
G03 Y13.2176 Z-4.8333 I0.3975 J-0.6885
G03 X176.6815 Y13.9061 Z-5.1250 I0.3975 J0.6885
G03 X175.4890 Y14.5946 Z-5.4167 I-0.7950 J0.0000
G03 Y13.2176 Z-5.7083 I0.3975 J-0.6885
G03 X176.6815 Y13.9061 Z-6.0000 I0.3975 J0.6885
G03 X175.4890 Y14.5946 I-0.7950 J0.0000
G03 Y13.2176 I0.3975 J-0.6885
G03 X176.6815 Y13.9061 I0.3975 J0.6885
G01 X175.8865 F3000
G01 X176.9943
G01 Y325.9786
G01 X174.7905
G01 Y13.9061
G01 X175.8865
G01 X175.8880 Y12.4465
G01 X178.4539
G01 Y327.4382
G01 X173.3309
G01 Y12.4465
G01 X175.8880
G01 X175.8877 Y11.6896
G01 X179.1929
G01 Y328.2088
G01 X172.5741
G01 Y11.6896
G01 X175.8877
G00 Z5.0000
G00 X175.8915 Y13.9061
G00 Z-5.5000
G01 X176.6865 F900
G03 X175.4940 Y14.5946 Z-5.7917 I-0.7950 J0.0000
G03 Y13.2176 Z-6.0833 I0.3975 J-0.6885
G03 X176.6865 Y13.9061 Z-6.3750 I0.3975 J0.6885
G03 X175.4940 Y14.5946 Z-6.6667 I-0.7950 J0.0000
G03 Y13.2176 Z-6.9583 I0.3975 J-0.6885
G03 X176.6865 Y13.9061 Z-7.2500 I0.3975 J0.6885
G03 X175.4940 Y14.5946 Z-7.5417 I-0.7950 J0.0000
G03 Y13.2176 Z-7.8333 I0.3975 J-0.6885
G03 X176.6865 Y13.9061 Z-8.1250 I0.3975 J0.6885
G03 X175.4940 Y14.5946 Z-8.4167 I-0.7950 J0.0000
G03 Y13.2176 Z-8.7083 I0.3975 J-0.6885
G03 X176.6865 Y13.9061 Z-9.0000 I0.3975 J0.6885
G03 X175.4940 Y14.5946 I-0.7950 J0.0000
G03 Y13.2176 I0.3975 J-0.6885
G03 X176.6865 Y13.9061 I0.3975 J0.6885
G01 X175.8915 F3000
G01 X176.9943
G01 Y325.9786
G01 X174.7905
G01 Y13.9061
G01 X175.8915
G01 X175.8917 Y12.4465
G01 X178.4539
G01 Y327.4382
G01 X173.3309
G01 Y12.4465
G01 X175.8917
G01 X175.8913 Y11.6896
G01 X179.1929
G01 Y328.2088
G01 X172.5741
G01 Y11.6896
G01 X175.8913
G00 Z5.0000
G00 X175.8922 Y13.9061
G00 Z-8.5000
G01 X176.6872 F900
G03 X175.4947 Y14.5946 Z-8.7500 I-0.7950 J0.0000
G03 Y13.2176 Z-9.0000 I0.3975 J-0.6885
G03 X176.6872 Y13.9061 Z-9.2500 I0.3975 J0.6885
G03 X175.4947 Y14.5946 Z-9.5000 I-0.7950 J0.0000
G03 Y13.2176 Z-9.7500 I0.3975 J-0.6885
G03 X176.6872 Y13.9061 Z-10.0000 I0.3975 J0.6885
G03 X175.4947 Y14.5946 I-0.7950 J0.0000
G03 Y13.2176 I0.3975 J-0.6885
G03 X176.6872 Y13.9061 I0.3975 J0.6885
G01 X175.8922 F3000
G01 X176.9943
G01 Y325.9786
G01 X174.7905
G01 Y13.9061
G01 X175.8922
G01 Y12.4465
G01 X178.4539
G01 Y327.4382
G01 X173.3309
G01 Y12.4465
G01 X175.8922
G01 X175.8918 Y11.6896
G01 X179.1929
G01 Y328.2088
G01 X172.5741
G01 Y11.6896
G01 X175.8918
G00 Z5.0000


(No. 14: Hole 17)
G00 X172.8940 Y12.5237 Z5.0000
G00 Z0.5000
G01 Z0.0000 F900
G01 X189.9079 Z-1.5000
G01 X172.8940 Z-3.0000
G01 X192.7265 F3000
G01 Y13.9547
G01 X172.8940
G01 Y15.3857
G01 X192.7265
G01 Y16.8167
G01 X172.8940
G01 Y18.2477
G01 X192.7265
G01 Y19.6787
G01 X172.8940
G01 Y21.1097
G01 X192.7265
G01 Y22.5407
G01 X172.8940
G01 Y23.9717
G01 X192.7265
G01 Y25.4027
G01 X172.8940
G01 Y26.8337
G01 X192.7265
G01 Y28.2647
G01 X172.8940
G01 Y29.6957
G01 X192.7265
G01 Y31.1267
G01 X172.8940
G01 X172.5760 Y31.0766
G01 Y11.5920
G01 X172.1103 Y11.1262
G01 X172.5760 Y11.5920
G01 X193.0445
G01 X193.5102 Y11.1262
G01 X193.0445 Y11.5920
G01 Y32.0584
G01 X193.5102 Y32.5241
G01 X193.0445 Y32.0584
G01 X172.5760
G01 X172.1103 Y32.5241
G01 X172.5760 Y32.0584
G01 Y31.0766
G01 X172.8940 Y31.1267
G01 X189.9079 Z-4.5000 F900
G01 X172.8940 Z-6.0000
G01 X192.7265 F3000
G01 Y29.6957
G01 X172.8940
G01 Y28.2647
G01 X192.7265
G01 Y26.8337
G01 X172.8940
G01 Y25.4027
G01 X192.7265
G01 Y23.9717
G01 X172.8940
G01 Y22.5407
G01 X192.7265
G01 Y21.1097
G01 X172.8940
G01 Y19.6787
G01 X192.7265
G01 Y18.2477
G01 X172.8940
G01 Y16.8167
G01 X192.7265
G01 Y15.3857
G01 X172.8940
G01 Y13.9547
G01 X192.7265
G01 Y12.5237
G01 X172.8940
G01 X172.5760 Y12.5738
G01 Y11.5920
G01 X172.1103 Y11.1262
G01 X172.5760 Y11.5920
G01 X193.0445
G01 X193.5102 Y11.1262
G01 X193.0445 Y11.5920
G01 Y32.0584
G01 X193.5102 Y32.5241
G01 X193.0445 Y32.0584
G01 X172.5760
G01 X172.1103 Y32.5241
G01 X172.5760 Y32.0584
G01 Y12.5738
G01 X172.8940 Y12.5237
G01 X189.9079 Z-7.5000 F900
G01 X172.8940 Z-9.0000
G01 X192.7265 F3000
G01 Y13.9547
G01 X172.8940
G01 Y15.3857
G01 X192.7265
G01 Y16.8167
G01 X172.8940
G01 Y18.2477
G01 X192.7265
G01 Y19.6787
G01 X172.8940
G01 Y21.1097
G01 X192.7265
G01 Y22.5407
G01 X172.8940
G01 Y23.9717
G01 X192.7265
G01 Y25.4027
G01 X172.8940
G01 Y26.8337
G01 X192.7265
G01 Y28.2647
G01 X172.8940
G01 Y29.6957
G01 X192.7265
G01 Y31.1267
G01 X172.8940
G01 X172.5760 Y31.0766
G01 Y11.5920
G01 X172.1103 Y11.1262
G01 X172.5760 Y11.5920
G01 X193.0445
G01 X193.5102 Y11.1262
G01 X193.0445 Y11.5920
G01 Y32.0584
G01 X193.5102 Y32.5241
G01 X193.0445 Y32.0584
G01 X172.5760
G01 X172.1103 Y32.5241
G01 X172.5760 Y32.0584
G01 Y31.0766
G01 X172.8940 Y31.1267
G01 X189.9079 Z-10.5000 F900
G01 X172.8940 Z-12.0000
G01 X192.7265 F3000
G01 Y29.6957
G01 X172.8940
G01 Y28.2647
G01 X192.7265
G01 Y26.8337
G01 X172.8940
G01 Y25.4027
G01 X192.7265
G01 Y23.9717
G01 X172.8940
G01 Y22.5407
G01 X192.7265
G01 Y21.1097
G01 X172.8940
G01 Y19.6787
G01 X192.7265
G01 Y18.2477
G01 X172.8940
G01 Y16.8167
G01 X192.7265
G01 Y15.3857
G01 X172.8940
G01 Y13.9547
G01 X192.7265
G01 Y12.5237
G01 X172.8940
G01 X172.5760 Y12.5738
G01 Y11.5920
G01 X172.1103 Y11.1262
G01 X172.5760 Y11.5920
G01 X193.0445
G01 X193.5102 Y11.1262
G01 X193.0445 Y11.5920
G01 Y32.0584
G01 X193.5102 Y32.5241
G01 X193.0445 Y32.0584
G01 X172.5760
G01 X172.1103 Y32.5241
G01 X172.5760 Y32.0584
G01 Y12.5738
G01 X172.8940 Y12.5237
G01 X189.9079 Z-13.5000 F900
G01 X172.8940 Z-15.0000
G01 X192.7265 F3000
G01 Y13.9547
G01 X172.8940
G01 Y15.3857
G01 X192.7265
G01 Y16.8167
G01 X172.8940
G01 Y18.2477
G01 X192.7265
G01 Y19.6787
G01 X172.8940
G01 Y21.1097
G01 X192.7265
G01 Y22.5407
G01 X172.8940
G01 Y23.9717
G01 X192.7265
G01 Y25.4027
G01 X172.8940
G01 Y26.8337
G01 X192.7265
G01 Y28.2647
G01 X172.8940
G01 Y29.6957
G01 X192.7265
G01 Y31.1267
G01 X172.8940
G01 X172.5760 Y31.0766
G01 Y11.5920
G01 X172.1103 Y11.1262
G01 X172.5760 Y11.5920
G01 X193.0445
G01 X193.5102 Y11.1262
G01 X193.0445 Y11.5920
G01 Y32.0584
G01 X193.5102 Y32.5241
G01 X193.0445 Y32.0584
G01 X172.5760
G01 X172.1103 Y32.5241
G01 X172.5760 Y32.0584
G01 Y31.0766
G01 X172.8940 Y31.1267
G00 Z5.0000


(No. 15: Hole 34)
G00 X188.6421 Y36.7630 Z5.0000
G00 Z0.5000
G01 X189.4371 F900
G03 X188.2446 Y37.4515 Z0.2083 I-0.7950 J0.0000
G03 Y36.0746 Z-0.0833 I0.3975 J-0.6885
G03 X189.4371 Y36.7630 Z-0.3750 I0.3975 J0.6885
G03 X188.2446 Y37.4515 Z-0.6667 I-0.7950 J0.0000
G03 Y36.0746 Z-0.9583 I0.3975 J-0.6885
G03 X189.4371 Y36.7630 Z-1.2500 I0.3975 J0.6885
G03 X188.2446 Y37.4515 Z-1.5417 I-0.7950 J0.0000
G03 Y36.0746 Z-1.8333 I0.3975 J-0.6885
G03 X189.4371 Y36.7630 Z-2.1250 I0.3975 J0.6885
G03 X188.2446 Y37.4515 Z-2.4167 I-0.7950 J0.0000
G03 Y36.0746 Z-2.7083 I0.3975 J-0.6885
G03 X189.4371 Y36.7630 Z-3.0000 I0.3975 J0.6885
G03 X188.2446 Y37.4515 I-0.7950 J0.0000
G03 Y36.0746 I0.3975 J-0.6885
G03 X189.4371 Y36.7630 I0.3975 J0.6885
G01 X188.6421 F3000
G01 Y13.9061
G01 X190.8458
G01 Y325.9786
G01 X188.6421
G01 Y36.7630
G01 X187.1825 Y36.8031
G01 Y12.4465
G01 X192.3055
G01 Y327.4382
G01 X187.1825
G01 Y36.8031
G01 X186.4256 Y36.8136
G01 Y11.6896
G01 X193.0445
G01 Y328.2088
G01 X186.4256
G01 Y36.8136
G00 Z5.0000
G00 X188.6421 Y36.9120
G00 Z-2.5000
G01 X189.4371 F900
G03 X188.2446 Y37.6005 Z-2.7917 I-0.7950 J0.0000
G03 Y36.2235 Z-3.0833 I0.3975 J-0.6885
G03 X189.4371 Y36.9120 Z-3.3750 I0.3975 J0.6885
G03 X188.2446 Y37.6005 Z-3.6667 I-0.7950 J0.0000
G03 Y36.2235 Z-3.9583 I0.3975 J-0.6885
G03 X189.4371 Y36.9120 Z-4.2500 I0.3975 J0.6885
G03 X188.2446 Y37.6005 Z-4.5417 I-0.7950 J0.0000
G03 Y36.2235 Z-4.8333 I0.3975 J-0.6885
G03 X189.4371 Y36.9120 Z-5.1250 I0.3975 J0.6885
G03 X188.2446 Y37.6005 Z-5.4167 I-0.7950 J0.0000
G03 Y36.2235 Z-5.7083 I0.3975 J-0.6885
G03 X189.4371 Y36.9120 Z-6.0000 I0.3975 J0.6885
G03 X188.2446 Y37.6005 I-0.7950 J0.0000
G03 Y36.2235 I0.3975 J-0.6885
G03 X189.4371 Y36.9120 I0.3975 J0.6885
G01 X188.6421 F3000
G01 Y13.9061
G01 X190.8458
G01 Y325.9786
G01 X188.6421
G01 Y36.9120
G01 X187.1825 Y36.9519
G01 Y12.4465
G01 X192.3055
G01 Y327.4382
G01 X187.1825
G01 Y36.9519
G01 X186.4256 Y36.9622
G01 Y11.6896
G01 X193.0445
G01 Y328.2088
G01 X186.4256
G01 Y36.9622
G00 Z5.0000
G00 X188.6421 Y37.0600
G00 Z-5.5000
G01 X189.4371 F900
G03 X188.2446 Y37.7485 Z-5.7917 I-0.7950 J0.0000
G03 Y36.3715 Z-6.0833 I0.3975 J-0.6885
G03 X189.4371 Y37.0600 Z-6.3750 I0.3975 J0.6885
G03 X188.2446 Y37.7485 Z-6.6667 I-0.7950 J0.0000
G03 Y36.3715 Z-6.9583 I0.3975 J-0.6885
G03 X189.4371 Y37.0600 Z-7.2500 I0.3975 J0.6885
G03 X188.2446 Y37.7485 Z-7.5417 I-0.7950 J0.0000
G03 Y36.3715 Z-7.8333 I0.3975 J-0.6885
G03 X189.4371 Y37.0600 Z-8.1250 I0.3975 J0.6885
G03 X188.2446 Y37.7485 Z-8.4167 I-0.7950 J0.0000
G03 Y36.3715 Z-8.7083 I0.3975 J-0.6885
G03 X189.4371 Y37.0600 Z-9.0000 I0.3975 J0.6885
G03 X188.2446 Y37.7485 I-0.7950 J0.0000
G03 Y36.3715 I0.3975 J-0.6885
G03 X189.4371 Y37.0600 I0.3975 J0.6885
G01 X188.6421 F3000
G01 Y13.9061
G01 X190.8458
G01 Y325.9786
G01 X188.6421
G01 Y37.0600
G01 X187.1825 Y37.0996
G01 Y12.4465
G01 X192.3055
G01 Y327.4382
G01 X187.1825
G01 Y37.0996
G01 X186.4256 Y37.1098
G01 Y11.6896
G01 X193.0445
G01 Y328.2088
G01 X186.4256
G01 Y37.1098
G00 Z5.0000
G00 X188.6421 Y37.2069
G00 Z-8.5000
G01 X189.4371 F900
G03 X188.2446 Y37.8954 Z-8.7500 I-0.7950 J0.0000
G03 Y36.5184 Z-9.0000 I0.3975 J-0.6885
G03 X189.4371 Y37.2069 Z-9.2500 I0.3975 J0.6885
G03 X188.2446 Y37.8954 Z-9.5000 I-0.7950 J0.0000
G03 Y36.5184 Z-9.7500 I0.3975 J-0.6885
G03 X189.4371 Y37.2069 Z-10.0000 I0.3975 J0.6885
G03 X188.2446 Y37.8954 I-0.7950 J0.0000
G03 Y36.5184 I0.3975 J-0.6885
G03 X189.4371 Y37.2069 I0.3975 J0.6885
G01 X188.6421 F3000
G01 Y13.9061
G01 X190.8458
G01 Y325.9786
G01 X188.6421
G01 Y37.2069
G01 X187.1825 Y37.2463
G01 Y12.4465
G01 X192.3055
G01 Y327.4382
G01 X187.1825
G01 Y37.2463
G01 X186.4256 Y37.2565
G01 Y11.6896
G01 X193.0445
G01 Y328.2088
G01 X186.4256
G01 Y37.2565
G00 Z5.0000


(No. 16: Hole 35)
G00 X201.6046 Y41.3260 Z5.0000
G00 Z0.5000
G01 X202.3996 F900
G03 X201.2071 Y42.0145 Z0.2083 I-0.7950 J0.0000
G03 Y40.6375 Z-0.0833 I0.3975 J-0.6885
G03 X202.3996 Y41.3260 Z-0.3750 I0.3975 J0.6885
G03 X201.2071 Y42.0145 Z-0.6667 I-0.7950 J0.0000
G03 Y40.6375 Z-0.9583 I0.3975 J-0.6885
G03 X202.3996 Y41.3260 Z-1.2500 I0.3975 J0.6885
G03 X201.2071 Y42.0145 Z-1.5417 I-0.7950 J0.0000
G03 Y40.6375 Z-1.8333 I0.3975 J-0.6885
G03 X202.3996 Y41.3260 Z-2.1250 I0.3975 J0.6885
G03 X201.2071 Y42.0145 Z-2.4167 I-0.7950 J0.0000
G03 Y40.6375 Z-2.7083 I0.3975 J-0.6885
G03 X202.3996 Y41.3260 Z-3.0000 I0.3975 J0.6885
G03 X201.2071 Y42.0145 I-0.7950 J0.0000
G03 Y40.6375 I0.3975 J-0.6885
G03 X202.3996 Y41.3260 I0.3975 J0.6885
G01 X201.6046 F3000
G01 Y13.9061
G01 X203.8083
G01 Y325.9786
G01 X201.6046
G01 Y41.3260
G01 X200.1450 Y41.3591
G01 Y12.4465
G01 X205.2680
G01 Y327.4382
G01 X200.1450
G01 Y41.3591
G01 X199.3881 Y41.3678
G01 Y11.6896
G01 X206.0070
G01 Y328.2088
G01 X199.3881
G01 Y41.3678
G00 Z5.0000
G00 X201.6046 Y41.4485
G00 Z-2.5000
G01 X202.3996 F900
G03 X201.2071 Y42.1369 Z-2.7917 I-0.7950 J0.0000
G03 Y40.7600 Z-3.0833 I0.3975 J-0.6885
G03 X202.3996 Y41.4485 Z-3.3750 I0.3975 J0.6885
G03 X201.2071 Y42.1369 Z-3.6667 I-0.7950 J0.0000
G03 Y40.7600 Z-3.9583 I0.3975 J-0.6885
G03 X202.3996 Y41.4485 Z-4.2500 I0.3975 J0.6885
G03 X201.2071 Y42.1369 Z-4.5417 I-0.7950 J0.0000
G03 Y40.7600 Z-4.8333 I0.3975 J-0.6885
G03 X202.3996 Y41.4485 Z-5.1250 I0.3975 J0.6885
G03 X201.2071 Y42.1369 Z-5.4167 I-0.7950 J0.0000
G03 Y40.7600 Z-5.7083 I0.3975 J-0.6885
G03 X202.3996 Y41.4485 Z-6.0000 I0.3975 J0.6885
G03 X201.2071 Y42.1369 I-0.7950 J0.0000
G03 Y40.7600 I0.3975 J-0.6885
G03 X202.3996 Y41.4485 I0.3975 J0.6885
G01 X201.6046 F3000
G01 Y13.9061
G01 X203.8083
G01 Y325.9786
G01 X201.6046
G01 Y41.4485
G01 X200.1450 Y41.4814
G01 Y12.4465
G01 X205.2680
G01 Y327.4382
G01 X200.1450
G01 Y41.4814
G01 X199.3881 Y41.4900
G01 Y11.6896
G01 X206.0070
G01 Y328.2088
G01 X199.3881
G01 Y41.4900
G00 Z5.0000
G00 X201.6046 Y41.5703
G00 Z-5.5000
G01 X202.3996 F900
G03 X201.2071 Y42.2588 Z-5.7917 I-0.7950 J0.0000
G03 Y40.8818 Z-6.0833 I0.3975 J-0.6885
G03 X202.3996 Y41.5703 Z-6.3750 I0.3975 J0.6885
G03 X201.2071 Y42.2588 Z-6.6667 I-0.7950 J0.0000
G03 Y40.8818 Z-6.9583 I0.3975 J-0.6885
G03 X202.3996 Y41.5703 Z-7.2500 I0.3975 J0.6885
G03 X201.2071 Y42.2588 Z-7.5417 I-0.7950 J0.0000
G03 Y40.8818 Z-7.8333 I0.3975 J-0.6885
G03 X202.3996 Y41.5703 Z-8.1250 I0.3975 J0.6885
G03 X201.2071 Y42.2588 Z-8.4167 I-0.7950 J0.0000
G03 Y40.8818 Z-8.7083 I0.3975 J-0.6885
G03 X202.3996 Y41.5703 Z-9.0000 I0.3975 J0.6885
G03 X201.2071 Y42.2588 I-0.7950 J0.0000
G03 Y40.8818 I0.3975 J-0.6885
G03 X202.3996 Y41.5703 I0.3975 J0.6885
G01 X201.6046 F3000
G01 Y13.9061
G01 X203.8083
G01 Y325.9786
G01 X201.6046
G01 Y41.5703
G01 X200.1450 Y41.6031
G01 Y12.4465
G01 X205.2680
G01 Y327.4382
G01 X200.1450
G01 Y41.6031
G01 X199.3881 Y41.6117
G01 Y11.6896
G01 X206.0070
G01 Y328.2088
G01 X199.3881
G01 Y41.6117
G00 Z5.0000
G00 X201.6046 Y41.6916
G00 Z-8.5000
G01 X202.3996 F900
G03 X201.2071 Y42.3801 Z-8.7500 I-0.7950 J0.0000
G03 Y41.0031 Z-9.0000 I0.3975 J-0.6885
G03 X202.3996 Y41.6916 Z-9.2500 I0.3975 J0.6885
G03 X201.2071 Y42.3801 Z-9.5000 I-0.7950 J0.0000
G03 Y41.0031 Z-9.7500 I0.3975 J-0.6885
G03 X202.3996 Y41.6916 Z-10.0000 I0.3975 J0.6885
G03 X201.2071 Y42.3801 I-0.7950 J0.0000
G03 Y41.0031 I0.3975 J-0.6885
G03 X202.3996 Y41.6916 I0.3975 J0.6885
G01 X201.6046 F3000
G01 Y13.9061
G01 X203.8083
G01 Y325.9786
G01 X201.6046
G01 Y41.6916
G01 X200.1450 Y41.7242
G01 Y12.4465
G01 X205.2680
G01 Y327.4382
G01 X200.1450
G01 Y41.7242
G01 X199.3881 Y41.7328
G01 Y11.6896
G01 X206.0070
G01 Y328.2088
G01 X199.3881
G01 Y41.7328
G00 Z5.0000


(No. 17: Hole 18)
G00 X199.7081 Y31.1267 Z5.0000
G00 Z0.5000
G01 Z0.0000 F900
G01 X216.7220 Z-1.5000
G01 X199.7081 Z-3.0000
G01 X219.5405 F3000
G01 Y29.6957
G01 X199.7081
G01 Y28.2647
G01 X219.5405
G01 Y26.8337
G01 X199.7081
G01 Y25.4027
G01 X219.5405
G01 Y23.9717
G01 X199.7081
G01 Y22.5407
G01 X219.5405
G01 Y21.1097
G01 X199.7081
G01 Y19.6787
G01 X219.5405
G01 Y18.2477
G01 X199.7081
G01 Y16.8167
G01 X219.5405
G01 Y15.3857
G01 X199.7081
G01 Y13.9547
G01 X219.5405
G01 Y12.5237
G01 X199.7081
G01 X199.3901 Y12.5738
G01 Y11.5920
G01 X198.9244 Y11.1262
G01 X199.3901 Y11.5920
G01 X219.8585
G01 X220.3242 Y11.1262
G01 X219.8585 Y11.5920
G01 Y32.0584
G01 X220.3242 Y32.5241
G01 X219.8585 Y32.0584
G01 X199.3901
G01 X198.9244 Y32.5241
G01 X199.3901 Y32.0584
G01 Y12.5738
G01 X199.7081 Y12.5237
G01 X216.7220 Z-4.5000 F900
G01 X199.7081 Z-6.0000
G01 X219.5405 F3000
G01 Y13.9547
G01 X199.7081
G01 Y15.3857
G01 X219.5405
G01 Y16.8167
G01 X199.7081
G01 Y18.2477
G01 X219.5405
G01 Y19.6787
G01 X199.7081
G01 Y21.1097
G01 X219.5405
G01 Y22.5407
G01 X199.7081
G01 Y23.9717
G01 X219.5405
G01 Y25.4027
G01 X199.7081
G01 Y26.8337
G01 X219.5405
G01 Y28.2647
G01 X199.7081
G01 Y29.6957
G01 X219.5405
G01 Y31.1267
G01 X199.7081
G01 X199.3901 Y31.0766
G01 Y11.5920
G01 X198.9244 Y11.1262
G01 X199.3901 Y11.5920
G01 X219.8585
G01 X220.3242 Y11.1262
G01 X219.8585 Y11.5920
G01 Y32.0584
G01 X220.3242 Y32.5241
G01 X219.8585 Y32.0584
G01 X199.3901
G01 X198.9244 Y32.5241
G01 X199.3901 Y32.0584
G01 Y31.0766
G01 X199.7081 Y31.1267
G01 X216.7220 Z-7.5000 F900
G01 X199.7081 Z-9.0000
G01 X219.5405 F3000
G01 Y29.6957
G01 X199.7081
G01 Y28.2647
G01 X219.5405
G01 Y26.8337
G01 X199.7081
G01 Y25.4027
G01 X219.5405
G01 Y23.9717
G01 X199.7081
G01 Y22.5407
G01 X219.5405
G01 Y21.1097
G01 X199.7081
G01 Y19.6787
G01 X219.5405
G01 Y18.2477
G01 X199.7081
G01 Y16.8167
G01 X219.5405
G01 Y15.3857
G01 X199.7081
G01 Y13.9547
G01 X219.5405
G01 Y12.5237
G01 X199.7081
G01 X199.3901 Y12.5738
G01 Y11.5920
G01 X198.9244 Y11.1262
G01 X199.3901 Y11.5920
G01 X219.8585
G01 X220.3242 Y11.1262
G01 X219.8585 Y11.5920
G01 Y32.0584
G01 X220.3242 Y32.5241
G01 X219.8585 Y32.0584
G01 X199.3901
G01 X198.9244 Y32.5241
G01 X199.3901 Y32.0584
G01 Y12.5738
G01 X199.7081 Y12.5237
G01 X216.7220 Z-10.5000 F900
G01 X199.7081 Z-12.0000
G01 X219.5405 F3000
G01 Y13.9547
G01 X199.7081
G01 Y15.3857
G01 X219.5405
G01 Y16.8167
G01 X199.7081
G01 Y18.2477
G01 X219.5405
G01 Y19.6787
G01 X199.7081
G01 Y21.1097
G01 X219.5405
G01 Y22.5407
G01 X199.7081
G01 Y23.9717
G01 X219.5405
G01 Y25.4027
G01 X199.7081
G01 Y26.8337
G01 X219.5405
G01 Y28.2647
G01 X199.7081
G01 Y29.6957
G01 X219.5405
G01 Y31.1267
G01 X199.7081
G01 X199.3901 Y31.0766
G01 Y11.5920
G01 X198.9244 Y11.1262
G01 X199.3901 Y11.5920
G01 X219.8585
G01 X220.3242 Y11.1262
G01 X219.8585 Y11.5920
G01 Y32.0584
G01 X220.3242 Y32.5241
G01 X219.8585 Y32.0584
G01 X199.3901
G01 X198.9244 Y32.5241
G01 X199.3901 Y32.0584
G01 Y31.0766
G01 X199.7081 Y31.1267
G01 X216.7220 Z-13.5000 F900
G01 X199.7081 Z-15.0000
G01 X219.5405 F3000
G01 Y29.6957
G01 X199.7081
G01 Y28.2647
G01 X219.5405
G01 Y26.8337
G01 X199.7081
G01 Y25.4027
G01 X219.5405
G01 Y23.9717
G01 X199.7081
G01 Y22.5407
G01 X219.5405
G01 Y21.1097
G01 X199.7081
G01 Y19.6787
G01 X219.5405
G01 Y18.2477
G01 X199.7081
G01 Y16.8167
G01 X219.5405
G01 Y15.3857
G01 X199.7081
G01 Y13.9547
G01 X219.5405
G01 Y12.5237
G01 X199.7081
G01 X199.3901 Y12.5738
G01 Y11.5920
G01 X198.9244 Y11.1262
G01 X199.3901 Y11.5920
G01 X219.8585
G01 X220.3242 Y11.1262
G01 X219.8585 Y11.5920
G01 Y32.0584
G01 X220.3242 Y32.5241
G01 X219.8585 Y32.0584
G01 X199.3901
G01 X198.9244 Y32.5241
G01 X199.3901 Y32.0584
G01 Y12.5738
G01 X199.7081 Y12.5237
G00 Z5.0000


(No. 18: Hole 37)
G00 X229.4799 Y13.9061 Z5.0000
G00 Z0.5000
G01 X230.2749 F900
G03 X229.0824 Y14.5946 Z0.2083 I-0.7950 J0.0000
G03 Y13.2176 Z-0.0833 I0.3975 J-0.6885
G03 X230.2749 Y13.9061 Z-0.3750 I0.3975 J0.6885
G03 X229.0824 Y14.5946 Z-0.6667 I-0.7950 J0.0000
G03 Y13.2176 Z-0.9583 I0.3975 J-0.6885
G03 X230.2749 Y13.9061 Z-1.2500 I0.3975 J0.6885
G03 X229.0824 Y14.5946 Z-1.5417 I-0.7950 J0.0000
G03 Y13.2176 Z-1.8333 I0.3975 J-0.6885
G03 X230.2749 Y13.9061 Z-2.1250 I0.3975 J0.6885
G03 X229.0824 Y14.5946 Z-2.4167 I-0.7950 J0.0000
G03 Y13.2176 Z-2.7083 I0.3975 J-0.6885
G03 X230.2749 Y13.9061 Z-3.0000 I0.3975 J0.6885
G03 X229.0824 Y14.5946 I-0.7950 J0.0000
G03 Y13.2176 I0.3975 J-0.6885
G03 X230.2749 Y13.9061 I0.3975 J0.6885
G01 X229.4799 F3000
G01 X230.6224
G01 Y325.9786
G01 X228.4187
G01 Y13.9061
G01 X229.4799
G01 X229.4899 Y12.4465
G01 X232.0820
G01 Y327.4382
G01 X226.9591
G01 Y12.4465
G01 X229.4899
G01 X229.4910 Y11.6896
G01 X232.8210
G01 Y328.2088
G01 X226.2022
G01 Y11.6896
G01 X229.4910
G00 Z5.0000
G00 X229.5147 Y13.9061
G00 Z-2.5000
G01 X230.3097 F900
G03 X229.1172 Y14.5946 Z-2.7917 I-0.7950 J0.0000
G03 Y13.2176 Z-3.0833 I0.3975 J-0.6885
G03 X230.3097 Y13.9061 Z-3.3750 I0.3975 J0.6885
G03 X229.1172 Y14.5946 Z-3.6667 I-0.7950 J0.0000
G03 Y13.2176 Z-3.9583 I0.3975 J-0.6885
G03 X230.3097 Y13.9061 Z-4.2500 I0.3975 J0.6885
G03 X229.1172 Y14.5946 Z-4.5417 I-0.7950 J0.0000
G03 Y13.2176 Z-4.8333 I0.3975 J-0.6885
G03 X230.3097 Y13.9061 Z-5.1250 I0.3975 J0.6885
G03 X229.1172 Y14.5946 Z-5.4167 I-0.7950 J0.0000
G03 Y13.2176 Z-5.7083 I0.3975 J-0.6885
G03 X230.3097 Y13.9061 Z-6.0000 I0.3975 J0.6885
G03 X229.1172 Y14.5946 I-0.7950 J0.0000
G03 Y13.2176 I0.3975 J-0.6885
G03 X230.3097 Y13.9061 I0.3975 J0.6885
G01 X229.5147 F3000
G01 X230.6224
G01 Y325.9786
G01 X228.4187
G01 Y13.9061
G01 X229.5147
G01 X229.5161 Y12.4465
G01 X232.0820
G01 Y327.4382
G01 X226.9591
G01 Y12.4465
G01 X229.5161
G01 X229.5159 Y11.6896
G01 X232.8210
G01 Y328.2088
G01 X226.2022
G01 Y11.6896
G01 X229.5159
G00 Z5.0000
G00 X229.5196 Y13.9061
G00 Z-5.5000
G01 X230.3146 F900
G03 X229.1221 Y14.5946 Z-5.7917 I-0.7950 J0.0000
G03 Y13.2176 Z-6.0833 I0.3975 J-0.6885
G03 X230.3146 Y13.9061 Z-6.3750 I0.3975 J0.6885
G03 X229.1221 Y14.5946 Z-6.6667 I-0.7950 J0.0000
G03 Y13.2176 Z-6.9583 I0.3975 J-0.6885
G03 X230.3146 Y13.9061 Z-7.2500 I0.3975 J0.6885
G03 X229.1221 Y14.5946 Z-7.5417 I-0.7950 J0.0000
G03 Y13.2176 Z-7.8333 I0.3975 J-0.6885
G03 X230.3146 Y13.9061 Z-8.1250 I0.3975 J0.6885
G03 X229.1221 Y14.5946 Z-8.4167 I-0.7950 J0.0000
G03 Y13.2176 Z-8.7083 I0.3975 J-0.6885
G03 X230.3146 Y13.9061 Z-9.0000 I0.3975 J0.6885
G03 X229.1221 Y14.5946 I-0.7950 J0.0000
G03 Y13.2176 I0.3975 J-0.6885
G03 X230.3146 Y13.9061 I0.3975 J0.6885
G01 X229.5196 F3000
G01 X230.6224
G01 Y325.9786
G01 X228.4187
G01 Y13.9061
G01 X229.5196
G01 X229.5199 Y12.4465
G01 X232.0820
G01 Y327.4382
G01 X226.9591
G01 Y12.4465
G01 X229.5199
G01 X229.5194 Y11.6896
G01 X232.8210
G01 Y328.2088
G01 X226.2022
G01 Y11.6896
G01 X229.5194
G00 Z5.0000
G00 X229.5203 Y13.9061
G00 Z-8.5000
G01 X230.3153 F900
G03 X229.1228 Y14.5946 Z-8.7500 I-0.7950 J0.0000
G03 Y13.2176 Z-9.0000 I0.3975 J-0.6885
G03 X230.3153 Y13.9061 Z-9.2500 I0.3975 J0.6885
G03 X229.1228 Y14.5946 Z-9.5000 I-0.7950 J0.0000
G03 Y13.2176 Z-9.7500 I0.3975 J-0.6885
G03 X230.3153 Y13.9061 Z-10.0000 I0.3975 J0.6885
G03 X229.1228 Y14.5946 I-0.7950 J0.0000
G03 Y13.2176 I0.3975 J-0.6885
G03 X230.3153 Y13.9061 I0.3975 J0.6885
G01 X229.5203 F3000
G01 X230.6224
G01 Y325.9786
G01 X228.4187
G01 Y13.9061
G01 X229.5203
G01 X229.5204 Y12.4465
G01 X232.0820
G01 Y327.4382
G01 X226.9591
G01 Y12.4465
G01 X229.5204
G01 X229.5199 Y11.6896
G01 X232.8210
G01 Y328.2088
G01 X226.2022
G01 Y11.6896
G01 X229.5199
G00 Z5.0000


(No. 19: Hole 19)
G00 X226.5222 Y12.5237 Z5.0000
G00 Z0.5000
G01 Z0.0000 F900
G01 X243.5360 Z-1.5000
G01 X226.5222 Z-3.0000
G01 X246.3546 F3000
G01 Y13.9547
G01 X226.5222
G01 Y15.3857
G01 X246.3546
G01 Y16.8167
G01 X226.5222
G01 Y18.2477
G01 X246.3546
G01 Y19.6787
G01 X226.5222
G01 Y21.1097
G01 X246.3546
G01 Y22.5407
G01 X226.5222
G01 Y23.9717
G01 X246.3546
G01 Y25.4027
G01 X226.5222
G01 Y26.8337
G01 X246.3546
G01 Y28.2647
G01 X226.5222
G01 Y29.6957
G01 X246.3546
G01 Y31.1267
G01 X226.5222
G01 X226.2042 Y31.0766
G01 Y11.5920
G01 X225.7385 Y11.1263
G01 X226.2042 Y11.5920
G01 X246.6726
G01 X247.1383 Y11.1263
G01 X246.6726 Y11.5920
G01 Y32.0584
G01 X247.1383 Y32.5241
G01 X246.6726 Y32.0584
G01 X226.2042
G01 X225.7385 Y32.5241
G01 X226.2042 Y32.0584
G01 Y31.0766
G01 X226.5222 Y31.1267
G01 X243.5360 Z-4.5000 F900
G01 X226.5222 Z-6.0000
G01 X246.3546 F3000
G01 Y29.6957
G01 X226.5222
G01 Y28.2647
G01 X246.3546
G01 Y26.8337
G01 X226.5222
G01 Y25.4027
G01 X246.3546
G01 Y23.9717
G01 X226.5222
G01 Y22.5407
G01 X246.3546
G01 Y21.1097
G01 X226.5222
G01 Y19.6787
G01 X246.3546
G01 Y18.2477
G01 X226.5222
G01 Y16.8167
G01 X246.3546
G01 Y15.3857
G01 X226.5222
G01 Y13.9547
G01 X246.3546
G01 Y12.5237
G01 X226.5222
G01 X226.2042 Y12.5738
G01 Y11.5920
G01 X225.7385 Y11.1263
G01 X226.2042 Y11.5920
G01 X246.6726
G01 X247.1383 Y11.1263
G01 X246.6726 Y11.5920
G01 Y32.0584
G01 X247.1383 Y32.5241
G01 X246.6726 Y32.0584
G01 X226.2042
G01 X225.7385 Y32.5241
G01 X226.2042 Y32.0584
G01 Y12.5738
G01 X226.5222 Y12.5237
G01 X243.5360 Z-7.5000 F900
G01 X226.5222 Z-9.0000
G01 X246.3546 F3000
G01 Y13.9547
G01 X226.5222
G01 Y15.3857
G01 X246.3546
G01 Y16.8167
G01 X226.5222
G01 Y18.2477
G01 X246.3546
G01 Y19.6787
G01 X226.5222
G01 Y21.1097
G01 X246.3546
G01 Y22.5407
G01 X226.5222
G01 Y23.9717
G01 X246.3546
G01 Y25.4027
G01 X226.5222
G01 Y26.8337
G01 X246.3546
G01 Y28.2647
G01 X226.5222
G01 Y29.6957
G01 X246.3546
G01 Y31.1267
G01 X226.5222
G01 X226.2042 Y31.0766
G01 Y11.5920
G01 X225.7385 Y11.1263
G01 X226.2042 Y11.5920
G01 X246.6726
G01 X247.1383 Y11.1263
G01 X246.6726 Y11.5920
G01 Y32.0584
G01 X247.1383 Y32.5241
G01 X246.6726 Y32.0584
G01 X226.2042
G01 X225.7385 Y32.5241
G01 X226.2042 Y32.0584
G01 Y31.0766
G01 X226.5222 Y31.1267
G01 X243.5360 Z-10.5000 F900
G01 X226.5222 Z-12.0000
G01 X246.3546 F3000
G01 Y29.6957
G01 X226.5222
G01 Y28.2647
G01 X246.3546
G01 Y26.8337
G01 X226.5222
G01 Y25.4027
G01 X246.3546
G01 Y23.9717
G01 X226.5222
G01 Y22.5407
G01 X246.3546
G01 Y21.1097
G01 X226.5222
G01 Y19.6787
G01 X246.3546
G01 Y18.2477
G01 X226.5222
G01 Y16.8167
G01 X246.3546
G01 Y15.3857
G01 X226.5222
G01 Y13.9547
G01 X246.3546
G01 Y12.5237
G01 X226.5222
G01 X226.2042 Y12.5738
G01 Y11.5920
G01 X225.7385 Y11.1263
G01 X226.2042 Y11.5920
G01 X246.6726
G01 X247.1383 Y11.1263
G01 X246.6726 Y11.5920
G01 Y32.0584
G01 X247.1383 Y32.5241
G01 X246.6726 Y32.0584
G01 X226.2042
G01 X225.7385 Y32.5241
G01 X226.2042 Y32.0584
G01 Y12.5738
G01 X226.5222 Y12.5237
G01 X243.5360 Z-13.5000 F900
G01 X226.5222 Z-15.0000
G01 X246.3546 F3000
G01 Y13.9547
G01 X226.5222
G01 Y15.3857
G01 X246.3546
G01 Y16.8167
G01 X226.5222
G01 Y18.2477
G01 X246.3546
G01 Y19.6787
G01 X226.5222
G01 Y21.1097
G01 X246.3546
G01 Y22.5407
G01 X226.5222
G01 Y23.9717
G01 X246.3546
G01 Y25.4027
G01 X226.5222
G01 Y26.8337
G01 X246.3546
G01 Y28.2647
G01 X226.5222
G01 Y29.6957
G01 X246.3546
G01 Y31.1267
G01 X226.5222
G01 X226.2042 Y31.0766
G01 Y11.5920
G01 X225.7385 Y11.1263
G01 X226.2042 Y11.5920
G01 X246.6726
G01 X247.1383 Y11.1263
G01 X246.6726 Y11.5920
G01 Y32.0584
G01 X247.1383 Y32.5241
G01 X246.6726 Y32.0584
G01 X226.2042
G01 X225.7385 Y32.5241
G01 X226.2042 Y32.0584
G01 Y31.0766
G01 X226.5222 Y31.1267
G00 Z5.0000


(No. 20: Hole 38)
G00 X242.2702 Y36.7630 Z5.0000
G00 Z0.5000
G01 X243.0652 F900
G03 X241.8727 Y37.4515 Z0.2083 I-0.7950 J0.0000
G03 Y36.0746 Z-0.0833 I0.3975 J-0.6885
G03 X243.0652 Y36.7630 Z-0.3750 I0.3975 J0.6885
G03 X241.8727 Y37.4515 Z-0.6667 I-0.7950 J0.0000
G03 Y36.0746 Z-0.9583 I0.3975 J-0.6885
G03 X243.0652 Y36.7630 Z-1.2500 I0.3975 J0.6885
G03 X241.8727 Y37.4515 Z-1.5417 I-0.7950 J0.0000
G03 Y36.0746 Z-1.8333 I0.3975 J-0.6885
G03 X243.0652 Y36.7630 Z-2.1250 I0.3975 J0.6885
G03 X241.8727 Y37.4515 Z-2.4167 I-0.7950 J0.0000
G03 Y36.0746 Z-2.7083 I0.3975 J-0.6885
G03 X243.0652 Y36.7630 Z-3.0000 I0.3975 J0.6885
G03 X241.8727 Y37.4515 I-0.7950 J0.0000
G03 Y36.0746 I0.3975 J-0.6885
G03 X243.0652 Y36.7630 I0.3975 J0.6885
G01 X242.2702 F3000
G01 Y13.9061
G01 X244.4740
G01 Y325.9786
G01 X242.2702
G01 Y36.7630
G01 X240.8106 Y36.8031
G01 Y12.4465
G01 X245.9336
G01 Y327.4382
G01 X240.8106
G01 Y36.8031
G01 X240.0538 Y36.8136
G01 Y11.6896
G01 X246.6726
G01 Y328.2088
G01 X240.0538
G01 Y36.8136
G00 Z5.0000
G00 X242.2702 Y36.9120
G00 Z-2.5000
G01 X243.0652 F900
G03 X241.8727 Y37.6005 Z-2.7917 I-0.7950 J0.0000
G03 Y36.2235 Z-3.0833 I0.3975 J-0.6885
G03 X243.0652 Y36.9120 Z-3.3750 I0.3975 J0.6885
G03 X241.8727 Y37.6005 Z-3.6667 I-0.7950 J0.0000
G03 Y36.2235 Z-3.9583 I0.3975 J-0.6885
G03 X243.0652 Y36.9120 Z-4.2500 I0.3975 J0.6885
G03 X241.8727 Y37.6005 Z-4.5417 I-0.7950 J0.0000
G03 Y36.2235 Z-4.8333 I0.3975 J-0.6885
G03 X243.0652 Y36.9120 Z-5.1250 I0.3975 J0.6885
G03 X241.8727 Y37.6005 Z-5.4167 I-0.7950 J0.0000
G03 Y36.2235 Z-5.7083 I0.3975 J-0.6885
G03 X243.0652 Y36.9120 Z-6.0000 I0.3975 J0.6885
G03 X241.8727 Y37.6005 I-0.7950 J0.0000
G03 Y36.2235 I0.3975 J-0.6885
G03 X243.0652 Y36.9120 I0.3975 J0.6885
G01 X242.2702 F3000
G01 Y13.9061
G01 X244.4740
G01 Y325.9786
G01 X242.2702
G01 Y36.9120
G01 X240.8106 Y36.9519
G01 Y12.4465
G01 X245.9336
G01 Y327.4382
G01 X240.8106
G01 Y36.9519
G01 X240.0538 Y36.9622
G01 Y11.6896
G01 X246.6726
G01 Y328.2088
G01 X240.0538
G01 Y36.9622
G00 Z5.0000
G00 X242.2702 Y37.0600
G00 Z-5.5000
G01 X243.0652 F900
G03 X241.8727 Y37.7485 Z-5.7917 I-0.7950 J0.0000
G03 Y36.3715 Z-6.0833 I0.3975 J-0.6885
G03 X243.0652 Y37.0600 Z-6.3750 I0.3975 J0.6885
G03 X241.8727 Y37.7485 Z-6.6667 I-0.7950 J0.0000
G03 Y36.3715 Z-6.9583 I0.3975 J-0.6885
G03 X243.0652 Y37.0600 Z-7.2500 I0.3975 J0.6885
G03 X241.8727 Y37.7485 Z-7.5417 I-0.7950 J0.0000
G03 Y36.3715 Z-7.8333 I0.3975 J-0.6885
G03 X243.0652 Y37.0600 Z-8.1250 I0.3975 J0.6885
G03 X241.8727 Y37.7485 Z-8.4167 I-0.7950 J0.0000
G03 Y36.3715 Z-8.7083 I0.3975 J-0.6885
G03 X243.0652 Y37.0600 Z-9.0000 I0.3975 J0.6885
G03 X241.8727 Y37.7485 I-0.7950 J0.0000
G03 Y36.3715 I0.3975 J-0.6885
G03 X243.0652 Y37.0600 I0.3975 J0.6885
G01 X242.2702 F3000
G01 Y13.9061
G01 X244.4740
G01 Y325.9786
G01 X242.2702
G01 Y37.0600
G01 X240.8106 Y37.0996
G01 Y12.4465
G01 X245.9336
G01 Y327.4382
G01 X240.8106
G01 Y37.0996
G01 X240.0538 Y37.1098
G01 Y11.6896
G01 X246.6726
G01 Y328.2088
G01 X240.0538
G01 Y37.1098
G00 Z5.0000
G00 X242.2702 Y37.2069
G00 Z-8.5000
G01 X243.0652 F900
G03 X241.8727 Y37.8954 Z-8.7500 I-0.7950 J0.0000
G03 Y36.5184 Z-9.0000 I0.3975 J-0.6885
G03 X243.0652 Y37.2069 Z-9.2500 I0.3975 J0.6885
G03 X241.8727 Y37.8954 Z-9.5000 I-0.7950 J0.0000
G03 Y36.5184 Z-9.7500 I0.3975 J-0.6885
G03 X243.0652 Y37.2069 Z-10.0000 I0.3975 J0.6885
G03 X241.8727 Y37.8954 I-0.7950 J0.0000
G03 Y36.5184 I0.3975 J-0.6885
G03 X243.0652 Y37.2069 I0.3975 J0.6885
G01 X242.2702 F3000
G01 Y13.9061
G01 X244.4740
G01 Y325.9786
G01 X242.2702
G01 Y37.2069
G01 X240.8106 Y37.2463
G01 Y12.4465
G01 X245.9336
G01 Y327.4382
G01 X240.8106
G01 Y37.2463
G01 X240.0538 Y37.2565
G01 Y11.6896
G01 X246.6726
G01 Y328.2088
G01 X240.0538
G01 Y37.2565
G00 Z5.0000


(No. 21: Hole 39)
G00 X255.2328 Y41.3260 Z5.0000
G00 Z0.5000
G01 X256.0278 F900
G03 X254.8353 Y42.0145 Z0.2083 I-0.7950 J0.0000
G03 Y40.6375 Z-0.0833 I0.3975 J-0.6885
G03 X256.0278 Y41.3260 Z-0.3750 I0.3975 J0.6885
G03 X254.8353 Y42.0145 Z-0.6667 I-0.7950 J0.0000
G03 Y40.6375 Z-0.9583 I0.3975 J-0.6885
G03 X256.0278 Y41.3260 Z-1.2500 I0.3975 J0.6885
G03 X254.8353 Y42.0145 Z-1.5417 I-0.7950 J0.0000
G03 Y40.6375 Z-1.8333 I0.3975 J-0.6885
G03 X256.0278 Y41.3260 Z-2.1250 I0.3975 J0.6885
G03 X254.8353 Y42.0145 Z-2.4167 I-0.7950 J0.0000
G03 Y40.6375 Z-2.7083 I0.3975 J-0.6885
G03 X256.0278 Y41.3260 Z-3.0000 I0.3975 J0.6885
G03 X254.8353 Y42.0145 I-0.7950 J0.0000
G03 Y40.6375 I0.3975 J-0.6885
G03 X256.0278 Y41.3260 I0.3975 J0.6885
G01 X255.2328 F3000
G01 Y13.9061
G01 X257.4365
G01 Y325.9786
G01 X255.2328
G01 Y41.3260
G01 X253.7731 Y41.3591
G01 Y12.4465
G01 X258.8961
G01 Y327.4382
G01 X253.7731
G01 Y41.3591
G01 X253.0163 Y41.3678
G01 Y11.6896
G01 X259.6351
G01 Y328.2088
G01 X253.0163
G01 Y41.3678
G00 Z5.0000
G00 X255.2328 Y41.4485
G00 Z-2.5000
G01 X256.0278 F900
G03 X254.8353 Y42.1369 Z-2.7917 I-0.7950 J0.0000
G03 Y40.7600 Z-3.0833 I0.3975 J-0.6885
G03 X256.0278 Y41.4485 Z-3.3750 I0.3975 J0.6885
G03 X254.8353 Y42.1369 Z-3.6667 I-0.7950 J0.0000
G03 Y40.7600 Z-3.9583 I0.3975 J-0.6885
G03 X256.0278 Y41.4485 Z-4.2500 I0.3975 J0.6885
G03 X254.8353 Y42.1369 Z-4.5417 I-0.7950 J0.0000
G03 Y40.7600 Z-4.8333 I0.3975 J-0.6885
G03 X256.0278 Y41.4485 Z-5.1250 I0.3975 J0.6885
G03 X254.8353 Y42.1369 Z-5.4167 I-0.7950 J0.0000
G03 Y40.7600 Z-5.7083 I0.3975 J-0.6885
G03 X256.0278 Y41.4485 Z-6.0000 I0.3975 J0.6885
G03 X254.8353 Y42.1369 I-0.7950 J0.0000
G03 Y40.7600 I0.3975 J-0.6885
G03 X256.0278 Y41.4485 I0.3975 J0.6885
G01 X255.2328 F3000
G01 Y13.9061
G01 X257.4365
G01 Y325.9786
G01 X255.2328
G01 Y41.4485
G01 X253.7731 Y41.4814
G01 Y12.4465
G01 X258.8961
G01 Y327.4382
G01 X253.7731
G01 Y41.4814
G01 X253.0163 Y41.4900
G01 Y11.6896
G01 X259.6351
G01 Y328.2088
G01 X253.0163
G01 Y41.4900
G00 Z5.0000
G00 X255.2328 Y41.5703
G00 Z-5.5000
G01 X256.0278 F900
G03 X254.8353 Y42.2588 Z-5.7917 I-0.7950 J0.0000
G03 Y40.8818 Z-6.0833 I0.3975 J-0.6885
G03 X256.0278 Y41.5703 Z-6.3750 I0.3975 J0.6885
G03 X254.8353 Y42.2588 Z-6.6667 I-0.7950 J0.0000
G03 Y40.8818 Z-6.9583 I0.3975 J-0.6885
G03 X256.0278 Y41.5703 Z-7.2500 I0.3975 J0.6885
G03 X254.8353 Y42.2588 Z-7.5417 I-0.7950 J0.0000
G03 Y40.8818 Z-7.8333 I0.3975 J-0.6885
G03 X256.0278 Y41.5703 Z-8.1250 I0.3975 J0.6885
G03 X254.8353 Y42.2588 Z-8.4167 I-0.7950 J0.0000
G03 Y40.8818 Z-8.7083 I0.3975 J-0.6885
G03 X256.0278 Y41.5703 Z-9.0000 I0.3975 J0.6885
G03 X254.8353 Y42.2588 I-0.7950 J0.0000
G03 Y40.8818 I0.3975 J-0.6885
G03 X256.0278 Y41.5703 I0.3975 J0.6885
G01 X255.2328 F3000
G01 Y13.9061
G01 X257.4365
G01 Y325.9786
G01 X255.2328
G01 Y41.5703
G01 X253.7731 Y41.6031
G01 Y12.4465
G01 X258.8961
G01 Y327.4382
G01 X253.7731
G01 Y41.6031
G01 X253.0163 Y41.6117
G01 Y11.6896
G01 X259.6351
G01 Y328.2088
G01 X253.0163
G01 Y41.6117
G00 Z5.0000
G00 X255.2328 Y41.6916
G00 Z-8.5000
G01 X256.0278 F900
G03 X254.8353 Y42.3801 Z-8.7500 I-0.7950 J0.0000
G03 Y41.0031 Z-9.0000 I0.3975 J-0.6885
G03 X256.0278 Y41.6916 Z-9.2500 I0.3975 J0.6885
G03 X254.8353 Y42.3801 Z-9.5000 I-0.7950 J0.0000
G03 Y41.0031 Z-9.7500 I0.3975 J-0.6885
G03 X256.0278 Y41.6916 Z-10.0000 I0.3975 J0.6885
G03 X254.8353 Y42.3801 I-0.7950 J0.0000
G03 Y41.0031 I0.3975 J-0.6885
G03 X256.0278 Y41.6916 I0.3975 J0.6885
G01 X255.2328 F3000
G01 Y13.9061
G01 X257.4365
G01 Y325.9786
G01 X255.2328
G01 Y41.6916
G01 X253.7731 Y41.7242
G01 Y12.4465
G01 X258.8961
G01 Y327.4382
G01 X253.7731
G01 Y41.7242
G01 X253.0163 Y41.7328
G01 Y11.6896
G01 X259.6351
G01 Y328.2088
G01 X253.0163
G01 Y41.7328
G00 Z5.0000


(No. 22: Hole 20)
G00 X253.3363 Y31.1267 Z5.0000
G00 Z0.5000
G01 Z0.0000 F900
G01 X270.3501 Z-1.5000
G01 X253.3363 Z-3.0000
G01 X273.1687 F3000
G01 Y29.6957
G01 X253.3363
G01 Y28.2647
G01 X273.1687
G01 Y26.8337
G01 X253.3363
G01 Y25.4027
G01 X273.1687
G01 Y23.9717
G01 X253.3363
G01 Y22.5407
G01 X273.1687
G01 Y21.1097
G01 X253.3363
G01 Y19.6787
G01 X273.1687
G01 Y18.2477
G01 X253.3363
G01 Y16.8167
G01 X273.1687
G01 Y15.3857
G01 X253.3363
G01 Y13.9547
G01 X273.1687
G01 Y12.5237
G01 X253.3363
G01 X253.0183 Y12.5738
G01 Y11.5920
G01 X252.5526 Y11.1262
G01 X253.0183 Y11.5920
G01 X273.4867
G01 X273.9524 Y11.1262
G01 X273.4867 Y11.5920
G01 Y32.0584
G01 X273.9524 Y32.5241
G01 X273.4867 Y32.0584
G01 X253.0183
G01 X252.5526 Y32.5241
G01 X253.0183 Y32.0584
G01 Y12.5738
G01 X253.3363 Y12.5237
G01 X270.3501 Z-4.5000 F900
G01 X253.3363 Z-6.0000
G01 X273.1687 F3000
G01 Y13.9547
G01 X253.3363
G01 Y15.3857
G01 X273.1687
G01 Y16.8167
G01 X253.3363
G01 Y18.2477
G01 X273.1687
G01 Y19.6787
G01 X253.3363
G01 Y21.1097
G01 X273.1687
G01 Y22.5407
G01 X253.3363
G01 Y23.9717
G01 X273.1687
G01 Y25.4027
G01 X253.3363
G01 Y26.8337
G01 X273.1687
G01 Y28.2647
G01 X253.3363
G01 Y29.6957
G01 X273.1687
G01 Y31.1267
G01 X253.3363
G01 X253.0183 Y31.0766
G01 Y11.5920
G01 X252.5526 Y11.1262
G01 X253.0183 Y11.5920
G01 X273.4867
G01 X273.9524 Y11.1262
G01 X273.4867 Y11.5920
G01 Y32.0584
G01 X273.9524 Y32.5241
G01 X273.4867 Y32.0584
G01 X253.0183
G01 X252.5526 Y32.5241
G01 X253.0183 Y32.0584
G01 Y31.0766
G01 X253.3363 Y31.1267
G01 X270.3501 Z-7.5000 F900
G01 X253.3363 Z-9.0000
G01 X273.1687 F3000
G01 Y29.6957
G01 X253.3363
G01 Y28.2647
G01 X273.1687
G01 Y26.8337
G01 X253.3363
G01 Y25.4027
G01 X273.1687
G01 Y23.9717
G01 X253.3363
G01 Y22.5407
G01 X273.1687
G01 Y21.1097
G01 X253.3363
G01 Y19.6787
G01 X273.1687
G01 Y18.2477
G01 X253.3363
G01 Y16.8167
G01 X273.1687
G01 Y15.3857
G01 X253.3363
G01 Y13.9547
G01 X273.1687
G01 Y12.5237
G01 X253.3363
G01 X253.0183 Y12.5738
G01 Y11.5920
G01 X252.5526 Y11.1262
G01 X253.0183 Y11.5920
G01 X273.4867
G01 X273.9524 Y11.1262
G01 X273.4867 Y11.5920
G01 Y32.0584
G01 X273.9524 Y32.5241
G01 X273.4867 Y32.0584
G01 X253.0183
G01 X252.5526 Y32.5241
G01 X253.0183 Y32.0584
G01 Y12.5738
G01 X253.3363 Y12.5237
G01 X270.3501 Z-10.5000 F900
G01 X253.3363 Z-12.0000
G01 X273.1687 F3000
G01 Y13.9547
G01 X253.3363
G01 Y15.3857
G01 X273.1687
G01 Y16.8167
G01 X253.3363
G01 Y18.2477
G01 X273.1687
G01 Y19.6787
G01 X253.3363
G01 Y21.1097
G01 X273.1687
G01 Y22.5407
G01 X253.3363
G01 Y23.9717
G01 X273.1687
G01 Y25.4027
G01 X253.3363
G01 Y26.8337
G01 X273.1687
G01 Y28.2647
G01 X253.3363
G01 Y29.6957
G01 X273.1687
G01 Y31.1267
G01 X253.3363
G01 X253.0183 Y31.0766
G01 Y11.5920
G01 X252.5526 Y11.1262
G01 X253.0183 Y11.5920
G01 X273.4867
G01 X273.9524 Y11.1262
G01 X273.4867 Y11.5920
G01 Y32.0584
G01 X273.9524 Y32.5241
G01 X273.4867 Y32.0584
G01 X253.0183
G01 X252.5526 Y32.5241
G01 X253.0183 Y32.0584
G01 Y31.0766
G01 X253.3363 Y31.1267
G01 X270.3501 Z-13.5000 F900
G01 X253.3363 Z-15.0000
G01 X273.1687 F3000
G01 Y29.6957
G01 X253.3363
G01 Y28.2647
G01 X273.1687
G01 Y26.8337
G01 X253.3363
G01 Y25.4027
G01 X273.1687
G01 Y23.9717
G01 X253.3363
G01 Y22.5407
G01 X273.1687
G01 Y21.1097
G01 X253.3363
G01 Y19.6787
G01 X273.1687
G01 Y18.2477
G01 X253.3363
G01 Y16.8167
G01 X273.1687
G01 Y15.3857
G01 X253.3363
G01 Y13.9547
G01 X273.1687
G01 Y12.5237
G01 X253.3363
G01 X253.0183 Y12.5738
G01 Y11.5920
G01 X252.5526 Y11.1262
G01 X253.0183 Y11.5920
G01 X273.4867
G01 X273.9524 Y11.1262
G01 X273.4867 Y11.5920
G01 Y32.0584
G01 X273.9524 Y32.5241
G01 X273.4867 Y32.0584
G01 X253.0183
G01 X252.5526 Y32.5241
G01 X253.0183 Y32.0584
G01 Y12.5738
G01 X253.3363 Y12.5237
G00 Z5.0000


(No. 23: Hole 40)
G00 X270.1146 Y13.9061 Z5.0000
G00 Z0.5000
G01 X270.9096 F900
G03 X269.7171 Y14.5946 Z0.2083 I-0.7950 J0.0000
G03 Y13.2176 Z-0.0833 I0.3975 J-0.6885
G03 X270.9096 Y13.9061 Z-0.3750 I0.3975 J0.6885
G03 X269.7171 Y14.5946 Z-0.6667 I-0.7950 J0.0000
G03 Y13.2176 Z-0.9583 I0.3975 J-0.6885
G03 X270.9096 Y13.9061 Z-1.2500 I0.3975 J0.6885
G03 X269.7171 Y14.5946 Z-1.5417 I-0.7950 J0.0000
G03 Y13.2176 Z-1.8333 I0.3975 J-0.6885
G03 X270.9096 Y13.9061 Z-2.1250 I0.3975 J0.6885
G03 X269.7171 Y14.5946 Z-2.4167 I-0.7950 J0.0000
G03 Y13.2176 Z-2.7083 I0.3975 J-0.6885
G03 X270.9096 Y13.9061 Z-3.0000 I0.3975 J0.6885
G03 X269.7171 Y14.5946 I-0.7950 J0.0000
G03 Y13.2176 I0.3975 J-0.6885
G03 X270.9096 Y13.9061 I0.3975 J0.6885
G01 X270.1146 F3000
G01 X271.2881
G01 Y325.9786
G01 X269.0843
G01 Y13.9061
G01 X270.1146
G01 X270.1322 Y12.4465
G01 X272.7477
G01 Y327.4382
G01 X267.6247
G01 Y12.4465
G01 X270.1322
G01 X270.1344 Y11.6896
G01 X273.4867
G01 Y328.2088
G01 X266.8679
G01 Y11.6896
G01 X270.1344
G00 Z5.0000
G00 X270.1759 Y13.9061
G00 Z-2.5000
G01 X270.9709 F900
G03 X269.7784 Y14.5946 Z-2.7917 I-0.7950 J0.0000
G03 Y13.2176 Z-3.0833 I0.3975 J-0.6885
G03 X270.9709 Y13.9061 Z-3.3750 I0.3975 J0.6885
G03 X269.7784 Y14.5946 Z-3.6667 I-0.7950 J0.0000
G03 Y13.2176 Z-3.9583 I0.3975 J-0.6885
G03 X270.9709 Y13.9061 Z-4.2500 I0.3975 J0.6885
G03 X269.7784 Y14.5946 Z-4.5417 I-0.7950 J0.0000
G03 Y13.2176 Z-4.8333 I0.3975 J-0.6885
G03 X270.9709 Y13.9061 Z-5.1250 I0.3975 J0.6885
G03 X269.7784 Y14.5946 Z-5.4167 I-0.7950 J0.0000
G03 Y13.2176 Z-5.7083 I0.3975 J-0.6885
G03 X270.9709 Y13.9061 Z-6.0000 I0.3975 J0.6885
G03 X269.7784 Y14.5946 I-0.7950 J0.0000
G03 Y13.2176 I0.3975 J-0.6885
G03 X270.9709 Y13.9061 I0.3975 J0.6885
G01 X270.1759 F3000
G01 X271.2881
G01 Y325.9786
G01 X269.0843
G01 Y13.9061
G01 X270.1759
G01 X270.1785 Y12.4465
G01 X272.7477
G01 Y327.4382
G01 X267.6247
G01 Y12.4465
G01 X270.1785
G01 X270.1784 Y11.6896
G01 X273.4867
G01 Y328.2088
G01 X266.8679
G01 Y11.6896
G01 X270.1784
G00 Z5.0000
G00 X270.1847 Y13.9061
G00 Z-5.5000
G01 X270.9797 F900
G03 X269.7872 Y14.5946 Z-5.7917 I-0.7950 J0.0000
G03 Y13.2176 Z-6.0833 I0.3975 J-0.6885
G03 X270.9797 Y13.9061 Z-6.3750 I0.3975 J0.6885
G03 X269.7872 Y14.5946 Z-6.6667 I-0.7950 J0.0000
G03 Y13.2176 Z-6.9583 I0.3975 J-0.6885
G03 X270.9797 Y13.9061 Z-7.2500 I0.3975 J0.6885
G03 X269.7872 Y14.5946 Z-7.5417 I-0.7950 J0.0000
G03 Y13.2176 Z-7.8333 I0.3975 J-0.6885
G03 X270.9797 Y13.9061 Z-8.1250 I0.3975 J0.6885
G03 X269.7872 Y14.5946 Z-8.4167 I-0.7950 J0.0000
G03 Y13.2176 Z-8.7083 I0.3975 J-0.6885
G03 X270.9797 Y13.9061 Z-9.0000 I0.3975 J0.6885
G03 X269.7872 Y14.5946 I-0.7950 J0.0000
G03 Y13.2176 I0.3975 J-0.6885
G03 X270.9797 Y13.9061 I0.3975 J0.6885
G01 X270.1847 F3000
G01 X271.2881
G01 Y325.9786
G01 X269.0843
G01 Y13.9061
G01 X270.1847
G01 X270.1850 Y12.4465
G01 X272.7477
G01 Y327.4382
G01 X267.6247
G01 Y12.4465
G01 X270.1850
G01 X270.1846 Y11.6896
G01 X273.4867
G01 Y328.2088
G01 X266.8679
G01 Y11.6896
G01 X270.1846
G00 Z5.0000
G00 X270.1859 Y13.9061
G00 Z-8.5000
G01 X270.9809 F900
G03 X269.7884 Y14.5946 Z-8.7500 I-0.7950 J0.0000
G03 Y13.2176 Z-9.0000 I0.3975 J-0.6885
G03 X270.9809 Y13.9061 Z-9.2500 I0.3975 J0.6885
G03 X269.7884 Y14.5946 Z-9.5000 I-0.7950 J0.0000
G03 Y13.2176 Z-9.7500 I0.3975 J-0.6885
G03 X270.9809 Y13.9061 Z-10.0000 I0.3975 J0.6885
G03 X269.7884 Y14.5946 I-0.7950 J0.0000
G03 Y13.2176 I0.3975 J-0.6885
G03 X270.9809 Y13.9061 I0.3975 J0.6885
G01 X270.1859 F3000
G01 X271.2881
G01 Y325.9786
G01 X269.0843
G01 Y13.9061
G01 X270.1859
G01 X270.1860 Y12.4465
G01 X272.7477
G01 Y327.4382
G01 X267.6247
G01 Y12.4465
G01 X270.1860
G01 X270.1855 Y11.6896
G01 X273.4867
G01 Y328.2088
G01 X266.8679
G01 Y11.6896
G01 X270.1855
G00 Z5.0000


(No. 24: Hole 10)
G00 X273.1687 Y308.7737 Z5.0000
G00 Z0.5000
G01 Z0.0000 F900
G01 X256.1549 Z-1.5000
G01 X273.1687 Z-3.0000
G01 X253.3363 F3000
G01 Y310.2047
G01 X273.1687
G01 Y311.6357
G01 X253.3363
G01 Y313.0667
G01 X273.1687
G01 Y314.4977
G01 X253.3363
G01 Y315.9287
G01 X273.1687
G01 Y317.3597
G01 X253.3363
G01 Y318.7907
G01 X273.1687
G01 Y320.2217
G01 X253.3363
G01 Y321.6527
G01 X273.1687
G01 Y323.0837
G01 X253.3363
G01 Y324.5147
G01 X273.1687
G01 Y325.9457
G01 X253.3363
G01 Y327.3767
G01 X273.1687
G01 X273.4867 Y327.3266
G01 Y328.3084
G01 X273.9524 Y328.7741
G01 X273.4867 Y328.3084
G01 X253.0183
G01 X252.5526 Y328.7741
G01 X253.0183 Y328.3084
G01 Y307.8420
G01 X252.5526 Y307.3763
G01 X253.0183 Y307.8420
G01 X273.4867
G01 X273.9524 Y307.3763
G01 X273.4867 Y307.8420
G01 Y327.3266
G01 X273.1687 Y327.3767
G01 X256.1549 Z-4.5000 F900
G01 X273.1687 Z-6.0000
G01 X253.3363 F3000
G01 Y325.9457
G01 X273.1687
G01 Y324.5147
G01 X253.3363
G01 Y323.0837
G01 X273.1687
G01 Y321.6527
G01 X253.3363
G01 Y320.2217
G01 X273.1687
G01 Y318.7907
G01 X253.3363
G01 Y317.3597
G01 X273.1687
G01 Y315.9287
G01 X253.3363
G01 Y314.4977
G01 X273.1687
G01 Y313.0667
G01 X253.3363
G01 Y311.6357
G01 X273.1687
G01 Y310.2047
G01 X253.3363
G01 Y308.7737
G01 X273.1687
G01 X273.4867 Y308.8238
G01 Y328.3084
G01 X273.9524 Y328.7741
G01 X273.4867 Y328.3084
G01 X253.0183
G01 X252.5526 Y328.7741
G01 X253.0183 Y328.3084
G01 Y307.8420
G01 X252.5526 Y307.3763
G01 X253.0183 Y307.8420
G01 X273.4867
G01 X273.9524 Y307.3763
G01 X273.4867 Y307.8420
G01 Y308.8238
G01 X273.1687 Y308.7737
G01 X256.1549 Z-7.5000 F900
G01 X273.1687 Z-9.0000
G01 X253.3363 F3000
G01 Y310.2047
G01 X273.1687
G01 Y311.6357
G01 X253.3363
G01 Y313.0667
G01 X273.1687
G01 Y314.4977
G01 X253.3363
G01 Y315.9287
G01 X273.1687
G01 Y317.3597
G01 X253.3363
G01 Y318.7907
G01 X273.1687
G01 Y320.2217
G01 X253.3363
G01 Y321.6527
G01 X273.1687
G01 Y323.0837
G01 X253.3363
G01 Y324.5147
G01 X273.1687
G01 Y325.9457
G01 X253.3363
G01 Y327.3767
G01 X273.1687
G01 X273.4867 Y327.3266
G01 Y328.3084
G01 X273.9524 Y328.7741
G01 X273.4867 Y328.3084
G01 X253.0183
G01 X252.5526 Y328.7741
G01 X253.0183 Y328.3084
G01 Y307.8420
G01 X252.5526 Y307.3763
G01 X253.0183 Y307.8420
G01 X273.4867
G01 X273.9524 Y307.3763
G01 X273.4867 Y307.8420
G01 Y327.3266
G01 X273.1687 Y327.3767
G01 X256.1549 Z-10.5000 F900
G01 X273.1687 Z-12.0000
G01 X253.3363 F3000
G01 Y325.9457
G01 X273.1687
G01 Y324.5147
G01 X253.3363
G01 Y323.0837
G01 X273.1687
G01 Y321.6527
G01 X253.3363
G01 Y320.2217
G01 X273.1687
G01 Y318.7907
G01 X253.3363
G01 Y317.3597
G01 X273.1687
G01 Y315.9287
G01 X253.3363
G01 Y314.4977
G01 X273.1687
G01 Y313.0667
G01 X253.3363
G01 Y311.6357
G01 X273.1687
G01 Y310.2047
G01 X253.3363
G01 Y308.7737
G01 X273.1687
G01 X273.4867 Y308.8238
G01 Y328.3084
G01 X273.9524 Y328.7741
G01 X273.4867 Y328.3084
G01 X253.0183
G01 X252.5526 Y328.7741
G01 X253.0183 Y328.3084
G01 Y307.8420
G01 X252.5526 Y307.3763
G01 X253.0183 Y307.8420
G01 X273.4867
G01 X273.9524 Y307.3763
G01 X273.4867 Y307.8420
G01 Y308.8238
G01 X273.1687 Y308.7737
G01 X256.1549 Z-13.5000 F900
G01 X273.1687 Z-15.0000
G01 X253.3363 F3000
G01 Y310.2047
G01 X273.1687
G01 Y311.6357
G01 X253.3363
G01 Y313.0667
G01 X273.1687
G01 Y314.4977
G01 X253.3363
G01 Y315.9287
G01 X273.1687
G01 Y317.3597
G01 X253.3363
G01 Y318.7907
G01 X273.1687
G01 Y320.2217
G01 X253.3363
G01 Y321.6527
G01 X273.1687
G01 Y323.0837
G01 X253.3363
G01 Y324.5147
G01 X273.1687
G01 Y325.9457
G01 X253.3363
G01 Y327.3767
G01 X273.1687
G01 X273.4867 Y327.3266
G01 Y328.3084
G01 X273.9524 Y328.7741
G01 X273.4867 Y328.3084
G01 X253.0183
G01 X252.5526 Y328.7741
G01 X253.0183 Y328.3084
G01 Y307.8420
G01 X252.5526 Y307.3763
G01 X253.0183 Y307.8420
G01 X273.4867
G01 X273.9524 Y307.3763
G01 X273.4867 Y307.8420
G01 Y327.3266
G01 X273.1687 Y327.3767
G00 Z5.0000


(No. 25: Hole 9)
G00 X246.3546 Y327.3767 Z5.0000
G00 Z0.5000
G01 Z0.0000 F900
G01 X229.3408 Z-1.5000
G01 X246.3546 Z-3.0000
G01 X226.5222 F3000
G01 Y325.9457
G01 X246.3546
G01 Y324.5147
G01 X226.5222
G01 Y323.0837
G01 X246.3546
G01 Y321.6527
G01 X226.5222
G01 Y320.2217
G01 X246.3546
G01 Y318.7907
G01 X226.5222
G01 Y317.3597
G01 X246.3546
G01 Y315.9287
G01 X226.5222
G01 Y314.4977
G01 X246.3546
G01 Y313.0667
G01 X226.5222
G01 Y311.6357
G01 X246.3546
G01 Y310.2047
G01 X226.5222
G01 Y308.7737
G01 X246.3546
G01 X246.6726 Y308.8238
G01 Y328.3084
G01 X247.1383 Y328.7741
G01 X246.6726 Y328.3084
G01 X226.2042
G01 X225.7385 Y328.7741
G01 X226.2042 Y328.3084
G01 Y307.8420
G01 X225.7385 Y307.3763
G01 X226.2042 Y307.8420
G01 X246.6726
G01 X247.1383 Y307.3763
G01 X246.6726 Y307.8420
G01 Y308.8238
G01 X246.3546 Y308.7737
G01 X229.3408 Z-4.5000 F900
G01 X246.3546 Z-6.0000
G01 X226.5222 F3000
G01 Y310.2047
G01 X246.3546
G01 Y311.6357
G01 X226.5222
G01 Y313.0667
G01 X246.3546
G01 Y314.4977
G01 X226.5222
G01 Y315.9287
G01 X246.3546
G01 Y317.3597
G01 X226.5222
G01 Y318.7907
G01 X246.3546
G01 Y320.2217
G01 X226.5222
G01 Y321.6527
G01 X246.3546
G01 Y323.0837
G01 X226.5222
G01 Y324.5147
G01 X246.3546
G01 Y325.9457
G01 X226.5222
G01 Y327.3767
G01 X246.3546
G01 X246.6726 Y327.3266
G01 Y328.3084
G01 X247.1383 Y328.7741
G01 X246.6726 Y328.3084
G01 X226.2042
G01 X225.7385 Y328.7741
G01 X226.2042 Y328.3084
G01 Y307.8420
G01 X225.7385 Y307.3763
G01 X226.2042 Y307.8420
G01 X246.6726
G01 X247.1383 Y307.3763
G01 X246.6726 Y307.8420
G01 Y327.3266
G01 X246.3546 Y327.3767
G01 X229.3408 Z-7.5000 F900
G01 X246.3546 Z-9.0000
G01 X226.5222 F3000
G01 Y325.9457
G01 X246.3546
G01 Y324.5147
G01 X226.5222
G01 Y323.0837
G01 X246.3546
G01 Y321.6527
G01 X226.5222
G01 Y320.2217
G01 X246.3546
G01 Y318.7907
G01 X226.5222
G01 Y317.3597
G01 X246.3546
G01 Y315.9287
G01 X226.5222
G01 Y314.4977
G01 X246.3546
G01 Y313.0667
G01 X226.5222
G01 Y311.6357
G01 X246.3546
G01 Y310.2047
G01 X226.5222
G01 Y308.7737
G01 X246.3546
G01 X246.6726 Y308.8238
G01 Y328.3084
G01 X247.1383 Y328.7741
G01 X246.6726 Y328.3084
G01 X226.2042
G01 X225.7385 Y328.7741
G01 X226.2042 Y328.3084
G01 Y307.8420
G01 X225.7385 Y307.3763
G01 X226.2042 Y307.8420
G01 X246.6726
G01 X247.1383 Y307.3763
G01 X246.6726 Y307.8420
G01 Y308.8238
G01 X246.3546 Y308.7737
G01 X229.3408 Z-10.5000 F900
G01 X246.3546 Z-12.0000
G01 X226.5222 F3000
G01 Y310.2047
G01 X246.3546
G01 Y311.6357
G01 X226.5222
G01 Y313.0667
G01 X246.3546
G01 Y314.4977
G01 X226.5222
G01 Y315.9287
G01 X246.3546
G01 Y317.3597
G01 X226.5222
G01 Y318.7907
G01 X246.3546
G01 Y320.2217
G01 X226.5222
G01 Y321.6527
G01 X246.3546
G01 Y323.0837
G01 X226.5222
G01 Y324.5147
G01 X246.3546
G01 Y325.9457
G01 X226.5222
G01 Y327.3767
G01 X246.3546
G01 X246.6726 Y327.3266
G01 Y328.3084
G01 X247.1383 Y328.7741
G01 X246.6726 Y328.3084
G01 X226.2042
G01 X225.7385 Y328.7741
G01 X226.2042 Y328.3084
G01 Y307.8420
G01 X225.7385 Y307.3763
G01 X226.2042 Y307.8420
G01 X246.6726
G01 X247.1383 Y307.3763
G01 X246.6726 Y307.8420
G01 Y327.3266
G01 X246.3546 Y327.3767
G01 X229.3408 Z-13.5000 F900
G01 X246.3546 Z-15.0000
G01 X226.5222 F3000
G01 Y325.9457
G01 X246.3546
G01 Y324.5147
G01 X226.5222
G01 Y323.0837
G01 X246.3546
G01 Y321.6527
G01 X226.5222
G01 Y320.2217
G01 X246.3546
G01 Y318.7907
G01 X226.5222
G01 Y317.3597
G01 X246.3546
G01 Y315.9287
G01 X226.5222
G01 Y314.4977
G01 X246.3546
G01 Y313.0667
G01 X226.5222
G01 Y311.6357
G01 X246.3546
G01 Y310.2047
G01 X226.5222
G01 Y308.7737
G01 X246.3546
G01 X246.6726 Y308.8238
G01 Y328.3084
G01 X247.1383 Y328.7741
G01 X246.6726 Y328.3084
G01 X226.2042
G01 X225.7385 Y328.7741
G01 X226.2042 Y328.3084
G01 Y307.8420
G01 X225.7385 Y307.3763
G01 X226.2042 Y307.8420
G01 X246.6726
G01 X247.1383 Y307.3763
G01 X246.6726 Y307.8420
G01 Y308.8238
G01 X246.3546 Y308.7737
G00 Z5.0000


(No. 26: Hole 36)
G00 X217.7606 Y294.4299 Z5.0000
G00 Z0.5000
G01 X218.5556 F900
G03 X217.3631 Y295.1184 Z0.2083 I-0.7950 J0.0000
G03 Y293.7414 Z-0.0833 I0.3975 J-0.6885
G03 X218.5556 Y294.4299 Z-0.3750 I0.3975 J0.6885
G03 X217.3631 Y295.1184 Z-0.6667 I-0.7950 J0.0000
G03 Y293.7414 Z-0.9583 I0.3975 J-0.6885
G03 X218.5556 Y294.4299 Z-1.2500 I0.3975 J0.6885
G03 X217.3631 Y295.1184 Z-1.5417 I-0.7950 J0.0000
G03 Y293.7414 Z-1.8333 I0.3975 J-0.6885
G03 X218.5556 Y294.4299 Z-2.1250 I0.3975 J0.6885
G03 X217.3631 Y295.1184 Z-2.4167 I-0.7950 J0.0000
G03 Y293.7414 Z-2.7083 I0.3975 J-0.6885
G03 X218.5556 Y294.4299 Z-3.0000 I0.3975 J0.6885
G03 X217.3631 Y295.1184 I-0.7950 J0.0000
G03 Y293.7414 I0.3975 J-0.6885
G03 X218.5556 Y294.4299 I0.3975 J0.6885
G01 X217.7606 F3000
G01 Y326.0793
G01 X215.3566
G01 Y13.8065
G01 X217.7606
G01 Y294.4299
G01 X219.2203 Y294.4015
G01 Y327.5389
G01 X213.8969
G01 Y12.3468
G01 X219.2203
G01 Y294.4015
G01 X219.9581 Y294.3945
G01 Y328.3084
G01 X213.1401
G01 Y11.5900
G01 X219.9581
G01 Y294.3945
G00 Z5.0000
G00 X217.7606 Y294.3270
G00 Z-2.5000
G01 X218.5556 F900
G03 X217.3631 Y295.0155 Z-2.7917 I-0.7950 J0.0000
G03 Y293.6385 Z-3.0833 I0.3975 J-0.6885
G03 X218.5556 Y294.3270 Z-3.3750 I0.3975 J0.6885
G03 X217.3631 Y295.0155 Z-3.6667 I-0.7950 J0.0000
G03 Y293.6385 Z-3.9583 I0.3975 J-0.6885
G03 X218.5556 Y294.3270 Z-4.2500 I0.3975 J0.6885
G03 X217.3631 Y295.0155 Z-4.5417 I-0.7950 J0.0000
G03 Y293.6385 Z-4.8333 I0.3975 J-0.6885
G03 X218.5556 Y294.3270 Z-5.1250 I0.3975 J0.6885
G03 X217.3631 Y295.0155 Z-5.4167 I-0.7950 J0.0000
G03 Y293.6385 Z-5.7083 I0.3975 J-0.6885
G03 X218.5556 Y294.3270 Z-6.0000 I0.3975 J0.6885
G03 X217.3631 Y295.0155 I-0.7950 J0.0000
G03 Y293.6385 I0.3975 J-0.6885
G03 X218.5556 Y294.3270 I0.3975 J0.6885
G01 X217.7606 F3000
G01 Y326.0793
G01 X215.3566
G01 Y13.8065
G01 X217.7606
G01 Y294.3270
G01 X219.2203 Y294.2987
G01 Y327.5389
G01 X213.8969
G01 Y12.3468
G01 X219.2203
G01 Y294.2987
G01 X219.9581 Y294.2917
G01 Y328.3084
G01 X213.1401
G01 Y11.5900
G01 X219.9581
G01 Y294.2917
G00 Z5.0000
G00 X217.7606 Y294.2244
G00 Z-5.5000
G01 X218.5556 F900
G03 X217.3631 Y294.9129 Z-5.7917 I-0.7950 J0.0000
G03 Y293.5359 Z-6.0833 I0.3975 J-0.6885
G03 X218.5556 Y294.2244 Z-6.3750 I0.3975 J0.6885
G03 X217.3631 Y294.9129 Z-6.6667 I-0.7950 J0.0000
G03 Y293.5359 Z-6.9583 I0.3975 J-0.6885
G03 X218.5556 Y294.2244 Z-7.2500 I0.3975 J0.6885
G03 X217.3631 Y294.9129 Z-7.5417 I-0.7950 J0.0000
G03 Y293.5359 Z-7.8333 I0.3975 J-0.6885
G03 X218.5556 Y294.2244 Z-8.1250 I0.3975 J0.6885
G03 X217.3631 Y294.9129 Z-8.4167 I-0.7950 J0.0000
G03 Y293.5359 Z-8.7083 I0.3975 J-0.6885
G03 X218.5556 Y294.2244 Z-9.0000 I0.3975 J0.6885
G03 X217.3631 Y294.9129 I-0.7950 J0.0000
G03 Y293.5359 I0.3975 J-0.6885
G03 X218.5556 Y294.2244 I0.3975 J0.6885
G01 X217.7606 F3000
G01 Y326.0793
G01 X215.3566
G01 Y13.8065
G01 X217.7606
G01 Y294.2244
G01 X219.2203 Y294.1962
G01 Y327.5389
G01 X213.8969
G01 Y12.3468
G01 X219.2203
G01 Y294.1962
G01 X219.9581 Y294.1892
G01 Y328.3084
G01 X213.1401
G01 Y11.5900
G01 X219.9581
G01 Y294.1892
G00 Z5.0000
G00 X217.7606 Y294.1222
G00 Z-8.5000
G01 X218.5556 F900
G03 X217.3631 Y294.8107 Z-8.7500 I-0.7950 J0.0000
G03 Y293.4337 Z-9.0000 I0.3975 J-0.6885
G03 X218.5556 Y294.1222 Z-9.2500 I0.3975 J0.6885
G03 X217.3631 Y294.8107 Z-9.5000 I-0.7950 J0.0000
G03 Y293.4337 Z-9.7500 I0.3975 J-0.6885
G03 X218.5556 Y294.1222 Z-10.0000 I0.3975 J0.6885
G03 X217.3631 Y294.8107 I-0.7950 J0.0000
G03 Y293.4337 I0.3975 J-0.6885
G03 X218.5556 Y294.1222 I0.3975 J0.6885
G01 X217.7606 F3000
G01 Y326.0793
G01 X215.3566
G01 Y13.8065
G01 X217.7606
G01 Y294.1222
G01 X219.2203 Y294.0941
G01 Y327.5389
G01 X213.8969
G01 Y12.3468
G01 X219.2203
G01 Y294.0941
G01 X219.9581 Y294.0871
G01 Y328.3084
G01 X213.1401
G01 Y11.5900
G01 X219.9581
G01 Y294.0871
G00 Z5.0000


(No. 27: Hole 8)
G00 X219.5405 Y308.7737 Z5.0000
G00 Z0.5000
G01 Z0.0000 F900
G01 X202.5267 Z-1.5000
G01 X219.5405 Z-3.0000
G01 X199.7081 F3000
G01 Y310.2047
G01 X219.5405
G01 Y311.6357
G01 X199.7081
G01 Y313.0667
G01 X219.5405
G01 Y314.4977
G01 X199.7081
G01 Y315.9287
G01 X219.5405
G01 Y317.3597
G01 X199.7081
G01 Y318.7907
G01 X219.5405
G01 Y320.2217
G01 X199.7081
G01 Y321.6527
G01 X219.5405
G01 Y323.0837
G01 X199.7081
G01 Y324.5147
G01 X219.5405
G01 Y325.9457
G01 X199.7081
G01 Y327.3767
G01 X219.5405
G01 X219.8585 Y327.3266
G01 Y328.3084
G01 X220.3242 Y328.7741
G01 X219.8585 Y328.3084
G01 X199.3901
G01 X198.9244 Y328.7741
G01 X199.3901 Y328.3084
G01 Y307.8420
G01 X198.9244 Y307.3763
G01 X199.3901 Y307.8420
G01 X219.8585
G01 X220.3242 Y307.3763
G01 X219.8585 Y307.8420
G01 Y327.3266
G01 X219.5405 Y327.3767
G01 X202.5267 Z-4.5000 F900
G01 X219.5405 Z-6.0000
G01 X199.7081 F3000
G01 Y325.9457
G01 X219.5405
G01 Y324.5147
G01 X199.7081
G01 Y323.0837
G01 X219.5405
G01 Y321.6527
G01 X199.7081
G01 Y320.2217
G01 X219.5405
G01 Y318.7907
G01 X199.7081
G01 Y317.3597
G01 X219.5405
G01 Y315.9287
G01 X199.7081
G01 Y314.4977
G01 X219.5405
G01 Y313.0667
G01 X199.7081
G01 Y311.6357
G01 X219.5405
G01 Y310.2047
G01 X199.7081
G01 Y308.7737
G01 X219.5405
G01 X219.8585 Y308.8238
G01 Y328.3084
G01 X220.3242 Y328.7741
G01 X219.8585 Y328.3084
G01 X199.3901
G01 X198.9244 Y328.7741
G01 X199.3901 Y328.3084
G01 Y307.8420
G01 X198.9244 Y307.3763
G01 X199.3901 Y307.8420
G01 X219.8585
G01 X220.3242 Y307.3763
G01 X219.8585 Y307.8420
G01 Y308.8238
G01 X219.5405 Y308.7737
G01 X202.5267 Z-7.5000 F900
G01 X219.5405 Z-9.0000
G01 X199.7081 F3000
G01 Y310.2047
G01 X219.5405
G01 Y311.6357
G01 X199.7081
G01 Y313.0667
G01 X219.5405
G01 Y314.4977
G01 X199.7081
G01 Y315.9287
G01 X219.5405
G01 Y317.3597
G01 X199.7081
G01 Y318.7907
G01 X219.5405
G01 Y320.2217
G01 X199.7081
G01 Y321.6527
G01 X219.5405
G01 Y323.0837
G01 X199.7081
G01 Y324.5147
G01 X219.5405
G01 Y325.9457
G01 X199.7081
G01 Y327.3767
G01 X219.5405
G01 X219.8585 Y327.3266
G01 Y328.3084
G01 X220.3242 Y328.7741
G01 X219.8585 Y328.3084
G01 X199.3901
G01 X198.9244 Y328.7741
G01 X199.3901 Y328.3084
G01 Y307.8420
G01 X198.9244 Y307.3763
G01 X199.3901 Y307.8420
G01 X219.8585
G01 X220.3242 Y307.3763
G01 X219.8585 Y307.8420
G01 Y327.3266
G01 X219.5405 Y327.3767
G01 X202.5267 Z-10.5000 F900
G01 X219.5405 Z-12.0000
G01 X199.7081 F3000
G01 Y325.9457
G01 X219.5405
G01 Y324.5147
G01 X199.7081
G01 Y323.0837
G01 X219.5405
G01 Y321.6527
G01 X199.7081
G01 Y320.2217
G01 X219.5405
G01 Y318.7907
G01 X199.7081
G01 Y317.3597
G01 X219.5405
G01 Y315.9287
G01 X199.7081
G01 Y314.4977
G01 X219.5405
G01 Y313.0667
G01 X199.7081
G01 Y311.6357
G01 X219.5405
G01 Y310.2047
G01 X199.7081
G01 Y308.7737
G01 X219.5405
G01 X219.8585 Y308.8238
G01 Y328.3084
G01 X220.3242 Y328.7741
G01 X219.8585 Y328.3084
G01 X199.3901
G01 X198.9244 Y328.7741
G01 X199.3901 Y328.3084
G01 Y307.8420
G01 X198.9244 Y307.3763
G01 X199.3901 Y307.8420
G01 X219.8585
G01 X220.3242 Y307.3763
G01 X219.8585 Y307.8420
G01 Y308.8238
G01 X219.5405 Y308.7737
G01 X202.5267 Z-13.5000 F900
G01 X219.5405 Z-15.0000
G01 X199.7081 F3000
G01 Y310.2047
G01 X219.5405
G01 Y311.6357
G01 X199.7081
G01 Y313.0667
G01 X219.5405
G01 Y314.4977
G01 X199.7081
G01 Y315.9287
G01 X219.5405
G01 Y317.3597
G01 X199.7081
G01 Y318.7907
G01 X219.5405
G01 Y320.2217
G01 X199.7081
G01 Y321.6527
G01 X219.5405
G01 Y323.0837
G01 X199.7081
G01 Y324.5147
G01 X219.5405
G01 Y325.9457
G01 X199.7081
G01 Y327.3767
G01 X219.5405
G01 X219.8585 Y327.3266
G01 Y328.3084
G01 X220.3242 Y328.7741
G01 X219.8585 Y328.3084
G01 X199.3901
G01 X198.9244 Y328.7741
G01 X199.3901 Y328.3084
G01 Y307.8420
G01 X198.9244 Y307.3763
G01 X199.3901 Y307.8420
G01 X219.8585
G01 X220.3242 Y307.3763
G01 X219.8585 Y307.8420
G01 Y327.3266
G01 X219.5405 Y327.3767
G00 Z5.0000


(No. 28: Hole 7)
G00 X192.7265 Y327.3767 Z5.0000
G00 Z0.5000
G01 Z0.0000 F900
G01 X175.7126 Z-1.5000
G01 X192.7265 Z-3.0000
G01 X172.8940 F3000
G01 Y325.9457
G01 X192.7265
G01 Y324.5147
G01 X172.8940
